achrxme-1838/GR00T-WholeBodyControl/gear_sonic_deploy/reference/example/squat_001__A359/joint_pos.csv
joint_0,joint_1,joint_2,joint_3,joint_4,joint_5,joint_6,joint_7,joint_8,joint_9,joint_10,joint_11,joint_12,joint_13,joint_14,joint_15,joint_16,joint_17,joint_18,joint_19,joint_20,joint_21,joint_22,joint_23,joint_24,joint_25,joint_26,joint_27,joint_28
0.157271,0.150967,0.043443,-0.004952,0.007379,-0.019549,-0.088025,-0.183398,0.122220,0.036182,0.043516,-0.040328,-0.022877,-0.138449,-0.141305,0.199790,-0.205782,-0.010956,-0.001153,-0.412432,0.477254,1.211013,1.186763,0.003090,0.000816,0.066282,0.081555,0.051258,-0.000106
0.158530,0.152447,0.043443,-0.004952,0.007379,-0.019549,-0.088025,-0.183398,0.124251,0.033853,0.040944,-0.052400,-0.033291,-0.138449,-0.141305,0.197773,-0.201332,-0.010956,-0.001153,-0.421399,0.484298,1.224457,1.199046,-0.004671,0.007105,0.068814,0.085011,0.062650,-0.006979
0.158382,0.152637,0.043901,-0.004697,0.007250,-0.019078,-0.088350,-0.184641,0.127296,0.033048,0.039753,-0.065925,-0.044200,-0.137814,-0.139895,0.198729,-0.200477,-0.011620,-0.001151,-0.436703,0.498880,1.236468,1.208072,-0.012321,0.012353,0.071080,0.088102,0.070809,-0.011889
0.155419,0.150247,0.043901,-0.004697,0.007250,-0.019078,-0.088350,-0.184641,0.132370,0.035290,0.041321,-0.082355,-0.056102,-0.137814,-0.139895,0.205629,-0.206814,-0.011620,-0.001151,-0.464680,0.528538,1.245612,1.210582,-0.019747,0.015517,0.071080,0.090464,0.070809,-0.011889
0.151314,0.146873,0.045275,-0.005227,0.006264,-0.017803,-0.088394,-0.186338,0.139595,0.039355,0.044645,-0.106589,-0.074477,-0.137849,-0.139781,0.216189,-0.216646,-0.012218,-0.000821,-0.500033,0.565890,1.254956,1.210957,-0.026744,0.012472,0.072051,0.093897,0.064362,-0.008296
0.146639,0.143007,0.045845,-0.006340,0.005518,-0.016357,-0.088566,-0.187719,0.147895,0.044332,0.048849,-0.134724,-0.096087,-0.137853,-0.141065,0.228579,-0.228225,-0.012681,0.000571,-0.539074,0.607090,1.264401,1.210496,-0.033526,0.006321,0.072444,0.097866,0.053842,-0.002413
0.140492,0.136871,0.047109,-0.006340,0.003797,-0.016357,-0.088566,-0.189520,0.155784,0.050196,0.055600,-0.169616,-0.125389,-0.137853,-0.141065,0.247421,-0.245433,-0.012681,0.000571,-0.574683,0.644010,1.267185,1.205849,-0.030905,-0.007722,0.074432,0.101214,0.041624,0.004381
0.133261,0.129694,0.047952,-0.007972,0.001897,-0.015658,-0.088066,-0.191582,0.162503,0.056627,0.063113,-0.206418,-0.157005,-0.138038,-0.142533,0.268348,-0.264261,-0.013898,0.001868,-0.605335,0.675880,1.267878,1.199308,-0.027549,-0.021363,0.076613,0.103960,0.030764,0.010507
0.123861,0.120432,0.047952,-0.007972,-0.000359,-0.015658,-0.088066,-0.194164,0.166881,0.064192,0.072146,-0.247041,-0.193252,-0.138038,-0.144191,0.293445,-0.286330,-0.013898,0.003279,-0.626072,0.697651,1.264393,1.188974,-0.022723,-0.034198,0.079180,0.105502,0.022621,0.015301
0.112455,0.109414,0.048382,-0.009563,-0.002482,-0.015999,-0.087909,-0.196585,0.170225,0.073916,0.082795,-0.293047,-0.236294,-0.138978,-0.147108,0.323231,-0.313280,-0.014557,0.004995,-0.640925,0.714807,1.256633,1.175533,-0.018922,-0.046826,0.081520,0.106797,0.015844,0.018242
0.100047,0.097519,0.048662,-0.011028,-0.004539,-0.017116,-0.087038,-0.198925,0.173053,0.084720,0.094251,-0.341745,-0.282734,-0.140796,-0.150654,0.355361,-0.342670,-0.014602,0.006863,-0.652835,0.729657,1.246736,1.160537,-0.015635,-0.059351,0.084742,0.107968,0.009751,0.020258
0.084478,0.082075,0.048662,-0.011028,-0.007023,-0.017116,-0.087038,-0.200704,0.174750,0.098831,0.109306,-0.398735,-0.337981,-0.144611,-0.155099,0.394424,-0.378647,-0.015937,0.008225,-0.666455,0.744906,1.232762,1.141384,-0.013462,-0.072066,0.084742,0.107968,0.004938,0.018864
0.067503,0.065021,0.048799,-0.011808,-0.009345,-0.018649,-0.085873,-0.201943,0.175881,0.114208,0.125733,-0.458369,-0.395528,-0.149144,-0.159914,0.434938,-0.416423,-0.017645,0.009132,-0.681811,0.760790,1.218439,1.121321,-0.011754,-0.083827,0.086046,0.107183,0.000950,0.016728
0.047714,0.044746,0.048799,-0.011808,-0.011339,-0.018649,-0.084280,-0.201943,0.175881,0.132119,0.144905,-0.523288,-0.457674,-0.155115,-0.165470,0.478355,-0.457796,-0.017645,0.009132,-0.700642,0.777942,1.203420,1.099441,-0.011754,-0.093678,0.086046,0.107183,-0.001388,0.013106
0.023244,0.020088,0.049478,-0.013254,-0.014185,-0.020852,-0.082458,-0.201225,0.175312,0.154951,0.168715,-0.591914,-0.522237,-0.162398,-0.173123,0.521731,-0.500785,-0.018464,0.008775,-0.721174,0.796078,1.188515,1.076903,-0.012338,-0.100948,0.086354,0.105077,-0.001661,0.008889
-0.003568,-0.006762,0.049478,-0.014575,-0.017458,-0.023217,-0.080520,-0.201225,0.173815,0.180245,0.194844,-0.662394,-0.588007,-0.170338,-0.181824,0.565086,-0.544582,-0.018464,0.008775,-0.742557,0.814705,1.173668,1.054037,-0.013603,-0.106927,0.086354,0.103444,-0.001661,0.004375
-0.038387,-0.042269,0.049584,-0.016902,-0.022330,-0.025892,-0.078261,-0.198990,0.171058,0.214464,0.231734,-0.733501,-0.655364,-0.180793,-0.195226,0.606364,-0.588740,-0.019520,0.010008,-0.766245,0.833911,1.154344,1.030396,-0.015385,-0.111071,0.086660,0.101905,0.003810,-0.000398
-0.075069,-0.080275,0.048677,-0.019589,-0.028057,-0.028782,-0.075407,-0.197364,0.168339,0.251474,0.272678,-0.803470,-0.722765,-0.193370,-0.210703,0.647146,-0.632073,-0.020699,0.011302,-0.790327,0.852954,1.133376,1.007362,-0.017509,-0.114718,0.085419,0.100185,0.010047,-0.005089
-0.115477,-0.123275,0.047003,-0.022994,-0.035492,-0.032101,-0.071360,-0.195419,0.165693,0.294067,0.321732,-0.871161,-0.790254,-0.210192,-0.230332,0.686939,-0.673759,-0.020699,0.013134,-0.815196,0.871667,1.109118,0.985542,-0.020320,-0.117367,0.083561,0.098103,0.018829,-0.009617
-0.157158,-0.167479,0.044369,-0.026309,-0.043605,-0.034648,-0.065872,-0.192324,0.166116,0.343578,0.377140,-0.936649,-0.858963,-0.230682,-0.252325,0.727928,-0.713347,-0.022045,0.014912,-0.844793,0.892933,1.082907,0.965341,-0.022902,-0.116973,0.080786,0.095246,0.028648,-0.013697
-0.199477,-0.212284,0.041254,-0.029579,-0.052059,-0.036809,-0.059664,-0.188654,0.168074,0.396547,0.435723,-1.001034,-0.928281,-0.253006,-0.275500,0.769517,-0.751886,-0.022891,0.016664,-0.876754,0.915474,1.055721,0.945950,-0.026099,-0.115058,0.077553,0.092000,0.038986,-0.017552
-0.242437,-0.254209,0.036532,-0.031445,-0.058979,-0.035336,-0.053902,-0.184817,0.175941,0.459741,0.497505,-1.062662,-0.997519,-0.279600,-0.301060,0.810839,-0.784960,-0.025406,0.016664,-0.909755,0.936027,1.027443,0.929552,-0.026099,-0.108969,0.074801,0.088210,0.049452,-0.020728
-0.285898,-0.296054,0.031842,-0.031914,-0.064955,-0.033049,-0.048387,-0.180922,0.185244,0.525147,0.560139,-1.123238,-1.066870,-0.307835,-0.327434,0.851036,-0.816359,-0.027964,0.015146,-0.941088,0.955838,0.999776,0.914438,-0.026828,-0.101633,0.072361,0.084315,0.059872,-0.023655
-0.330358,-0.337737,0.027219,-0.031914,-0.069043,-0.029134,-0.043370,-0.176912,0.197418,0.594981,0.624480,-1.181710,-1.136449,-0.339350,-0.355435,0.888983,-0.844409,-0.030609,0.012869,-0.969084,0.974165,0.973332,0.901894,-0.026828,-0.091802,0.070541,0.080212,0.070200,-0.026083
-0.375248,-0.380347,0.023882,-0.029695,-0.072640,-0.025914,-0.037713,-0.172327,0.210982,0.666272,0.690015,-1.236110,-1.205229,-0.370577,-0.383451,0.922302,-0.868897,-0.033250,0.010426,-0.991861,0.992000,0.949414,0.892264,-0.026959,-0.080856,0.069013,0.076310,0.079581,-0.027974
-0.420353,-0.423421,0.021187,-0.027529,-0.075992,-0.022327,-0.031736,-0.167456,0.225240,0.738292,0.756146,-1.288473,-1.273608,-0.401659,-0.411475,0.953306,-0.891605,-0.035890,0.007901,-1.012029,1.009590,0.926759,0.884092,-0.026668,-0.069353,0.066773,0.072508,0.088488,-0.030422
-0.464367,-0.467700,0.019018,-0.026099,-0.079788,-0.022327,-0.026167,-0.162406,0.236360,0.803263,0.818976,-1.333210,-1.336662,-0.428772,-0.435931,0.979038,-0.912355,-0.037228,0.005547,-1.032407,1.032850,0.908388,0.877619,-0.026668,-0.061089,0.066773,0.069930,0.094541,-0.030422
-0.511543,-0.515691,0.016620,-0.025145,-0.083920,-0.021090,-0.020446,-0.156539,0.248075,0.871815,0.885999,-1.377984,-1.401242,-0.456639,-0.461436,1.006164,-0.933253,-0.037460,0.002978,-1.055013,1.059155,0.889876,0.871020,-0.027246,-0.053052,0.065074,0.067481,0.100281,-0.031893
-0.565046,-0.571110,0.013763,-0.025145,-0.088726,-0.021090,-0.014421,-0.149042,0.260976,0.947530,0.961406,-1.422837,-1.468875,-0.486017,-0.489038,1.036080,-0.954447,-0.037460,-0.000021,-1.082078,1.091551,0.871082,0.864170,-0.027246,-0.045471,0.065074,0.065290,0.105394,-0.031893
-0.623139,-0.630810,0.010563,-0.024247,-0.092485,-0.019585,-0.008889,-0.140862,0.273610,1.027133,1.039452,-1.465756,-1.535423,-0.515053,-0.517612,1.065656,-0.972409,-0.035088,-0.002881,-1.107032,1.123151,0.852882,0.858039,-0.029965,-0.038081,0.063457,0.063366,0.109677,-0.033220
-0.683527,-0.692651,0.007192,-0.024247,-0.095720,-0.019585,-0.003603,-0.132339,0.286111,1.108681,1.118816,-1.507708,-1.601428,-0.543918,-0.546672,1.095062,-0.988755,-0.032520,-0.005672,-1.130931,1.154353,0.834980,0.852266,-0.032767,-0.030788,0.063457,0.061574,0.113544,-0.033220
-0.750912,-0.761295,0.002696,-0.021827,-0.096658,-0.018601,0.000391,-0.124425,0.296561,1.192755,1.200173,-1.545448,-1.664646,-0.571871,-0.574179,1.121068,-0.999482,-0.029087,-0.008148,-1.145555,1.181546,0.819727,0.848850,-0.036408,-0.023007,0.062683,0.059919,0.116433,-0.034265
-0.819732,-0.831341,-0.002192,-0.019569,-0.098139,-0.018829,0.004228,-0.116977,0.307230,1.277241,1.281774,-1.581519,-1.726508,-0.598904,-0.600595,1.146283,-1.008196,-0.025618,-0.010716,-1.157909,1.207575,0.805825,0.846280,-0.040117,-0.015239,0.062121,0.058332,0.119225,-0.034628
-0.891421,-0.904191,-0.007862,-0.016574,-0.098139,-0.018829,0.007754,-0.110465,0.318336,1.362553,1.363864,-1.614253,-1.785661,-0.624098,-0.624830,1.169918,-1.012882,-0.022073,-0.013470,-1.165722,1.231277,0.794624,0.846280,-0.043963,-0.007497,0.062121,0.056882,0.121821,-0.034628
-0.963791,-0.977428,-0.014016,-0.011804,-0.099142,-0.016987,0.011072,-0.105536,0.331167,1.447980,1.445188,-1.643714,-1.841131,-0.645884,-0.645808,1.192776,-1.013047,-0.018373,-0.016502,-1.171814,1.252131,0.786086,0.847707,-0.048405,0.000214,0.063007,0.055596,0.124085,-0.034591
-1.036502,-1.050859,-0.020412,-0.006146,-0.099602,-0.014735,0.014288,-0.101398,0.344860,1.533464,1.526128,-1.671539,-1.894759,-0.665965,-0.665157,1.215245,-1.010951,-0.014595,-0.019673,-1.177044,1.271561,0.778879,0.850286,-0.053146,0.007909,0.063723,0.053473,0.126183,-0.034095
-1.109258,-1.124395,-0.027256,0.000585,-0.101894,-0.012506,0.017842,-0.098628,0.359671,1.616142,1.604344,-1.695206,-1.941800,-0.681269,-0.679880,1.235765,-1.003051,-0.010713,-0.023111,-1.181745,1.288801,0.772024,0.855229,-0.057730,0.015372,0.063723,0.053473,0.127532,-0.034095
-1.180558,-1.196788,-0.034025,0.006771,-0.104222,-0.010136,0.021094,-0.095611,0.375670,1.697440,1.681824,-1.717760,-1.986420,-0.695610,-0.693257,1.255658,-0.993820,-0.006752,-0.026713,-1.186230,1.305598,0.765074,0.860774,-0.062137,0.022481,0.064897,0.051965,0.129147,-0.033131
-1.248946,-1.266892,-0.040644,0.011867,-0.106620,-0.010136,0.023743,-0.092097,0.394047,1.775979,1.757829,-1.738086,-2.026197,-0.708025,-0.703941,1.274296,-0.981928,-0.002636,-0.030641,-1.190286,1.321507,0.757935,0.867523,-0.066190,0.028883,0.064897,0.051965,0.129147,-0.033131
-1.313971,-1.332461,-0.046868,0.016614,-0.107781,-0.008088,0.024287,-0.089696,0.415206,1.853035,1.830732,-1.756597,-2.061698,-0.716937,-0.712072,1.291389,-0.968764,0.001924,-0.034940,-1.192624,1.335616,0.752032,0.875898,-0.070219,0.034882,0.066442,0.051377,0.130357,-0.032140
-1.377313,-1.395764,-0.052894,0.021188,-0.108142,-0.006343,0.023947,-0.087852,0.437758,1.929349,1.902083,-1.774202,-2.095060,-0.724097,-0.718926,1.307711,-0.954964,0.006705,-0.039424,-1.194105,1.348825,0.746746,0.885087,-0.074236,0.040680,0.068000,0.050785,0.131003,-0.031455
-1.439161,-1.455322,-0.057175,0.027298,-0.106507,-0.002319,0.018551,-0.090767,0.460485,2.001252,1.966511,-1.788634,-2.122973,-0.728028,-0.721471,1.320188,-0.939431,0.011808,-0.044646,-1.192569,1.358521,0.743989,0.896566,-0.078625,0.046247,0.068000,0.050785,0.131003,-0.031455
-1.498257,-1.510021,-0.061244,0.033030,-0.105744,0.001287,0.012847,-0.094178,0.483187,2.070743,2.027752,-1.801966,-2.148712,-0.731335,-0.723909,1.331699,-0.923615,0.016313,-0.049846,-1.192045,1.369111,0.741308,0.908675,-0.083213,0.051517,0.069716,0.050875,0.130963,-0.030778
-1.551844,-1.554999,-0.064888,0.038008,-0.105744,0.004056,0.006529,-0.098583,0.505838,2.135409,2.082616,-1.813098,-2.170103,-0.731335,-0.726132,1.341277,-0.907231,0.019623,-0.055000,-1.192045,1.381491,0.738777,0.922046,-0.088199,0.056191,0.069716,0.050875,0.130963,-0.030778
-1.569706,-1.569996,-0.068377,0.041551,-0.107502,0.004478,0.000962,-0.103982,0.516033,2.175996,2.118323,-1.813437,-2.174498,-0.740851,-0.736898,1.345443,-0.888219,0.021639,-0.058887,-1.198760,1.391371,0.735957,0.935916,-0.093168,0.060203,0.071501,0.051478,0.130235,-0.030032
-1.570000,-1.570000,-0.071788,0.045130,-0.109651,0.003977,-0.004231,-0.109880,0.520000,2.204544,2.144451,-1.808379,-2.170395,-0.754097,-0.751935,1.346903,-0.867895,0.022467,-0.062141,-1.208081,1.400000,0.732992,0.950036,-0.098128,0.063884,0.073669,0.051791,0.129233,-0.029570
-1.570000,-1.570000,-0.074286,0.045130,-0.112825,0.005494,-0.010130,-0.115715,0.520000,2.227516,2.165668,-1.799883,-2.155899,-0.767921,-0.763691,1.342715,-0.846670,0.022467,-0.064507,-1.218798,1.400000,0.732992,0.963409,-0.103069,0.066896,0.073669,0.051791,0.129233,-0.029570
-1.570000,-1.570000,-0.075488,0.046785,-0.115457,0.008520,-0.016331,-0.121721,0.520000,2.250130,2.186154,-1.791944,-2.141007,-0.781046,-0.774247,1.336675,-0.825515,0.021876,-0.066689,-1.228992,1.400000,0.734038,0.976842,-0.107983,0.069907,0.075530,0.051884,0.128517,-0.029802
-1.570000,-1.570000,-0.074099,0.049488,-0.117005,0.014562,-0.023136,-0.128068,0.520000,2.272031,2.205178,-1.785117,-2.125327,-0.792773,-0.782400,1.326930,-0.804499,0.020356,-0.068502,-1.238140,1.400000,0.736635,0.990394,-0.112846,0.072915,0.075530,0.051884,0.128517,-0.029802
-1.570000,-1.570000,-0.069931,0.054070,-0.117521,0.020719,-0.031088,-0.135061,0.520000,2.296541,2.225952,-1.778504,-2.105789,-0.804226,-0.789253,1.311535,-0.780637,0.017638,-0.070813,-1.249312,1.400000,0.743225,1.009409,-0.118298,0.076611,0.077537,0.052462,0.128266,-0.030866
-1.570000,-1.570000,-0.064373,0.059591,-0.118284,0.026933,-0.039614,-0.142377,0.520000,2.322355,2.247601,-1.771997,-2.084323,-0.815540,-0.795456,1.293315,-0.755353,0.014321,-0.073375,-1.261496,1.400000,0.751811,1.031156,-0.124046,0.080650,0.079116,0.053297,0.128252,-0.031609
-1.570000,-1.570000,-0.059314,0.063861,-0.118284,0.028711,-0.047167,-0.148673,0.520000,2.342578,2.264729,-1.768783,-2.060500,-0.823316,-0.799104,1.270825,-0.730574,0.010621,-0.076379,-1.274816,1.396813,0.765810,1.053377,-0.129186,0.084452,0.080503,0.053297,0.128252,-0.032856
-1.570000,-1.570000,-0.054840,0.067390,-0.119693,0.028305,-0.054534,-0.154599,0.520000,2.362063,2.281853,-1.765164,-2.036138,-0.829864,-0.801536,1.246975,-0.706868,0.006631,-0.079624,-1.287897,1.394276,0.780965,1.074592,-0.134210,0.087774,0.081908,0.053898,0.129593,-0.034327
-1.570000,-1.570000,-0.051535,0.069436,-0.122148,0.023529,-0.061530,-0.159783,0.520000,2.380073,2.298972,-1.760737,-2.010697,-0.833958,-0.801536,1.220407,-0.685309,0.002060,-0.083348,-1.300505,1.394276,0.798430,1.093794,-0.139003,0.090136,0.083350,0.053898,0.129593,-0.036249
-1.570000,-1.570000,-0.049126,0.069476,-0.125811,0.019101,-0.066824,-0.162905,0.520000,2.397253,2.316016,-1.754127,-1.985004,-0.835839,-0.801367,1.191787,-0.664899,-0.003177,-0.087510,-1.310993,1.391894,0.818085,1.110694,-0.144058,0.092231,0.084722,0.053913,0.130601,-0.038475
-1.570000,-1.570000,-0.047164,0.068835,-0.130079,0.013914,-0.071266,-0.164830,0.520000,2.414018,2.333022,-1.746426,-1.959186,-0.836355,-0.801057,1.162140,-0.645062,-0.008747,-0.091890,-1.320421,1.388938,0.838835,1.126444,-0.149244,0.094192,0.087001,0.053526,0.131664,-0.040855
-1.570000,-1.570000,-0.045644,0.066487,-0.133677,0.013914,-0.073657,-0.164830,0.520000,2.427119,2.347237,-1.737591,-1.934551,-0.835178,-0.801057,1.130937,-0.628614,-0.013024,-0.095915,-1.329054,1.380984,0.860760,1.140104,-0.154347,0.096127,0.087001,0.053526,0.131664,-0.043441
-1.570000,-1.570000,-0.044045,0.063666,-0.137195,0.012117,-0.075727,-0.163756,0.520000,2.439445,2.360811,-1.729470,-1.911595,-0.833508,-0.800397,1.099698,-0.613920,-0.016996,-0.099705,-1.338374,1.375082,0.882070,1.153568,-0.159030,0.098328,0.088355,0.053298,0.133058,-0.046036
-1.570000,-1.570000,-0.042287,0.059899,-0.140552,0.012117,-0.077155,-0.163756,0.520000,2.450218,2.373103,-1.722776,-1.891995,-0.830854,-0.800397,1.068384,-0.602732,-0.020357,-0.103025,-1.349065,1.373284,0.902152,1.166641,-0.162873,0.098328,0.089592,0.053298,0.133058,-0.048648
-1.570000,-1.570000,-0.041702,0.055516,-0.144064,0.013270,-0.077496,-0.161539,0.520000,2.456939,2.382049,-1.718467,-1.878257,-0.829049,-0.798626,1.043550,-0.595392,-0.022849,-0.105504,-1.357014,1.370694,0.916499,1.176728,-0.165522,0.099850,0.090664,0.052850,0.134192,-0.050565
-1.570000,-1.570000,-0.040194,0.050826,-0.147652,0.016293,-0.076648,-0.159580,0.520000,2.462059,2.389321,-1.715349,-1.867452,-0.827669,-0.797833,1.021957,-0.589977,-0.025790,-0.107563,-1.363590,1.367707,0.927979,1.185323,-0.167574,0.101184,0.091891,0.052610,0.134974,-0.052134
-1.570000,-1.570000,-0.040194,0.045759,-0.151172,0.020081,-0.076648,-0.157541,0.520000,2.462059,2.392892,-1.717153,-1.861500,-0.827669,-0.797833,1.001988,-0.587334,-0.025790,-0.109337,-1.367023,1.361887,0.939377,1.193686,-0.169524,0.101184,0.091891,0.052610,0.134974,-0.053781
-1.570000,-1.570000,-0.038432,0.041436,-0.154474,0.023385,-0.075481,-0.155366,0.520000,2.461326,2.394692,-1.721182,-1.858151,-0.828549,-0.798081,0.983508,-0.585573,-0.027277,-0.111458,-1.370257,1.357440,0.951194,1.201651,-0.171363,0.102250,0.093018,0.052436,0.135967,-0.055421
-1.570000,-1.570000,-0.036087,0.038604,-0.154474,0.025720,-0.074119,-0.155366,0.520000,2.457844,2.392952,-1.729660,-1.860008,-0.828549,-0.799564,0.968003,-0.585573,-0.027277,-0.111458,-1.373093,1.355739,0.963846,1.208820,-0.172980,0.102250,0.093018,0.052436,0.135967,-0.057047
-1.570000,-1.570000,-0.033636,0.036382,-0.154574,0.027751,-0.072546,-0.154241,0.520000,2.450288,2.387134,-1.743296,-1.867357,-0.830228,-0.802113,0.955467,-0.586548,-0.027880,-0.112397,-1.375375,1.356036,0.976952,1.214357,-0.174503,0.102811,0.094203,0.052359,0.137325,-0.058461
-1.570000,-1.570000,-0.031131,0.034465,-0.153718,0.029630,-0.070868,-0.153326,0.520000,2.440694,2.379277,-1.759511,-1.877454,-0.831882,-0.805196,0.944415,-0.587824,-0.027053,-0.112112,-1.378019,1.357331,0.990284,1.219077,-0.175980,0.103288,0.095627,0.052058,0.138985,-0.059768
-1.570000,-1.570000,-0.029740,0.031378,-0.151623,0.029630,-0.068487,-0.153326,0.520000,2.425531,2.366447,-1.780826,-1.893333,-0.833551,-0.807780,0.936202,-0.590299,-0.027053,-0.112112,-1.378019,1.361592,1.002587,1.221359,-0.177327,0.103288,0.095627,0.052058,0.138985,-0.061232
-1.570000,-1.570000,-0.028813,0.027938,-0.149268,0.030824,-0.066100,-0.151829,0.520000,2.408902,2.352131,-1.802990,-1.910696,-0.834664,-0.810320,0.929079,-0.593264,-0.025866,-0.110894,-1.379257,1.366490,1.014532,1.223588,-0.178773,0.103695,0.097206,0.051515,0.140829,-0.062825
-1.570000,-1.570000,-0.028813,0.023793,-0.146394,0.030824,-0.063701,-0.151829,0.520000,2.389341,2.334839,-1.826851,-1.931029,-0.834664,-0.810320,0.924134,-0.597208,-0.024606,-0.109083,-1.381057,1.372664,1.025758,1.223588,-0.180419,0.103695,0.097206,0.051515,0.140829,-0.064679
-1.570000,-1.570000,-0.029528,0.018937,-0.143323,0.032679,-0.061587,-0.150086,0.520000,2.366966,2.314825,-1.851915,-1.952648,-0.833151,-0.810138,0.920927,-0.602033,-0.023374,-0.107036,-1.384917,1.378607,1.035770,1.224522,-0.182138,0.103933,0.098631,0.050789,0.142694,-0.066541
-1.570000,-1.570000,-0.030420,0.013726,-0.140153,0.034331,-0.058749,-0.148045,0.520000,2.343183,2.293450,-1.877581,-1.974910,-0.830886,-0.809139,0.918099,-0.607298,-0.021277,-0.104872,-1.389808,1.384435,1.045176,1.224748,-0.183895,0.104260,0.099905,0.050130,0.144392,-0.068408
-1.570000,-1.570000,-0.030420,0.007834,-0.137289,0.037095,-0.058749,-0.148045,0.520000,2.316233,2.268674,-1.902689,-1.996367,-0.825835,-0.805144,0.918099,-0.614029,-0.021277,-0.102653,-1.395922,1.389245,1.052840,1.224748,-0.185174,0.104260,0.099905,0.050130,0.144392,-0.070088
-1.570000,-1.570000,-0.031075,0.001946,-0.134806,0.039903,-0.057882,-0.147280,0.520000,2.288799,2.243328,-1.926015,-2.017343,-0.819520,-0.799764,0.918433,-0.621366,-0.020075,-0.100174,-1.399998,1.393962,1.059932,1.225159,-0.186776,0.104692,0.101098,0.049843,0.146053,-0.071713
-1.570000,-1.570000,-0.031075,-0.003933,-0.133086,0.042800,-0.057882,-0.147280,0.520000,2.260400,2.216842,-1.945781,-2.037353,-0.810673,-0.791614,0.920906,-0.629916,-0.020075,-0.097174,-1.399998,1.398490,1.065876,1.225159,-0.186776,0.104692,0.101098,0.049843,0.146053,-0.073231
-1.570000,-1.570000,-0.031811,-0.009608,-0.131875,0.043313,-0.058658,-0.147332,0.520000,2.231032,2.189772,-1.963693,-2.055394,-0.800011,-0.780887,0.925031,-0.639590,-0.019309,-0.093850,-1.400000,1.400000,1.069696,1.224859,-0.188118,0.104695,0.102135,0.049341,0.147713,-0.074569
-1.570000,-1.570000,-0.031598,-0.015182,-0.130745,0.041995,-0.059325,-0.146841,0.520000,2.201180,2.162410,-1.980679,-2.072450,-0.788441,-0.768872,0.929982,-0.649825,-0.018636,-0.090364,-1.400000,1.400000,1.071943,1.224328,-0.189160,0.104068,0.103117,0.048652,0.149062,-0.076644
-1.570000,-1.570000,-0.031598,-0.019662,-0.130745,0.041995,-0.059325,-0.146841,0.520000,2.172184,2.135360,-1.994760,-2.085793,-0.772718,-0.754506,0.935595,-0.661267,-0.018636,-0.087002,-1.400000,1.400000,1.071943,1.222765,-0.189160,0.104068,0.103117,0.048652,0.149062,-0.076644
-1.570000,-1.569279,-0.030460,-0.023955,-0.130738,0.041480,-0.058431,-0.145688,0.520000,2.143492,2.108470,-2.006995,-2.097839,-0.756078,-0.739939,0.941759,-0.672792,-0.018688,-0.083662,-1.400000,1.400000,1.070711,1.220873,-0.189487,0.103240,0.104095,0.048145,0.150239,-0.078106
-1.570000,-1.567115,-0.030460,-0.027873,-0.130738,0.041480,-0.056968,-0.144103,0.520000,2.115408,2.081900,-2.015540,-2.107291,-0.737604,-0.724966,0.949022,-0.684484,-0.018688,-0.080367,-1.400000,1.400000,1.068550,1.218322,-0.189487,0.103240,0.104095,0.048145,0.150239,-0.078106
-1.566300,-1.552064,-0.030214,-0.031527,-0.132252,0.043137,-0.057336,-0.146082,0.512000,2.084356,2.047326,-2.014555,-2.108127,-0.714536,-0.713523,0.955662,-0.694727,-0.019163,-0.077337,-1.400000,1.400000,1.064589,1.213620,-0.188504,0.102667,0.105061,0.047543,0.151546,-0.078958
-1.560749,-1.530567,-0.030462,-0.034636,-0.133796,0.045096,-0.059624,-0.149843,0.500001,2.051820,2.008748,-2.008807,-2.104655,-0.689170,-0.703844,0.962840,-0.704245,-0.020077,-0.074438,-1.400000,1.400000,1.059728,1.207842,-0.187213,0.103040,0.106503,0.047228,0.152229,-0.079036
-1.508000,-1.477637,-0.029158,-0.034636,-0.131309,0.043557,-0.059624,-0.153619,0.486183,1.993903,1.952594,-1.988087,-2.084795,-0.680966,-0.697972,0.962840,-0.710586,-0.020077,-0.071198,-1.395289,1.394620,1.052434,1.200061,-0.185254,0.103040,0.106503,0.047228,0.152229,-0.079036
-1.452134,-1.421889,-0.027816,-0.033687,-0.128500,0.041665,-0.061322,-0.157348,0.473162,1.934167,1.894634,-1.964458,-2.062663,-0.673391,-0.691875,0.964446,-0.716801,-0.021644,-0.067980,-1.386180,1.385129,1.043784,1.191397,-0.182878,0.104039,0.107935,0.046483,0.151853,-0.078727
-1.390032,-1.360507,-0.027816,-0.032085,-0.125048,0.039066,-0.061322,-0.160983,0.461737,1.870790,1.833064,-1.935010,-2.035984,-0.667074,-0.685325,0.966723,-0.722763,-0.021644,-0.064807,-1.368275,1.367416,1.032423,1.180964,-0.179666,0.105380,0.109394,0.046483,0.151853,-0.078727
-1.326450,-1.298457,-0.026970,-0.030586,-0.121474,0.036048,-0.062239,-0.163852,0.450587,1.805913,1.770817,-1.901832,-2.006348,-0.660598,-0.676504,0.970478,-0.729240,-0.023335,-0.061664,-1.346923,1.347595,1.016374,1.169882,-0.175386,0.106826,0.110765,0.045452,0.151539,-0.078387
-1.262126,-1.236074,-0.025911,-0.028881,-0.117838,0.032821,-0.061830,-0.166338,0.439575,1.740285,1.708230,-1.866790,-1.975234,-0.654042,-0.666549,0.974973,-0.735974,-0.025162,-0.058537,-1.323846,1.326720,0.997982,1.158477,-0.170572,0.108324,0.112182,0.044141,0.151340,-0.078217
-1.195689,-1.171158,-0.025911,-0.028881,-0.114154,0.029814,-0.061830,-0.167744,0.429292,1.671506,1.641968,-1.824646,-1.936635,-0.641815,-0.654369,0.980673,-0.741702,-0.025162,-0.055159,-1.295722,1.297472,0.976251,1.148224,-0.165323,0.110654,0.112182,0.044141,0.151340,-0.078217
-1.128260,-1.105133,-0.024795,-0.027471,-0.110301,0.026805,-0.060748,-0.169217,0.418990,1.600849,1.573715,-1.779618,-1.894658,-0.627907,-0.641024,0.985784,-0.746181,-0.026807,-0.051564,-1.265878,1.265833,0.954392,1.138144,-0.160327,0.114073,0.113077,0.042603,0.150635,-0.078207
-1.058847,-1.036891,-0.023503,-0.027471,-0.106112,0.023791,-0.060748,-0.170823,0.408650,1.526435,1.501485,-1.728822,-1.845927,-0.610635,-0.625350,0.989714,-0.748159,-0.026807,-0.047537,-1.232599,1.229411,0.932274,1.128409,-0.155838,0.119668,0.113077,0.042603,0.149227,-0.078207
-0.988447,-0.968040,-0.022220,-0.026445,-0.101420,0.019143,-0.060298,-0.172345,0.398565,1.449648,1.427350,-1.676771,-1.793954,-0.592710,-0.607662,0.989052,-0.746688,-0.028067,-0.043635,-1.203004,1.200433,0.914089,1.121093,-0.150788,0.126629,0.113866,0.040924,0.146711,-0.077688
-0.917552,-0.898884,-0.020350,-0.025678,-0.096478,0.013676,-0.060845,-0.173826,0.388609,1.371673,1.352262,-1.624092,-1.740359,-0.574459,-0.588968,0.986093,-0.743494,-0.028661,-0.039795,-1.175250,1.175177,0.897872,1.114986,-0.145458,0.134273,0.113572,0.039112,0.143640,-0.077009
-0.846850,-0.829556,-0.020350,-0.025678,-0.091202,0.006402,-0.062195,-0.176343,0.378592,1.289068,1.272443,-1.567685,-1.683487,-0.552189,-0.566794,0.973248,-0.735762,-0.030192,-0.036692,-1.147154,1.158128,0.890693,1.111592,-0.140743,0.141884,0.113572,0.039112,0.140344,-0.075041
-0.776186,-0.760535,-0.018671,-0.025269,-0.086231,-0.000244,-0.063461,-0.178657,0.368420,1.205003,1.191577,-1.510382,-1.624459,-0.528021,-0.543065,0.957245,-0.726211,-0.031545,-0.033485,-1.119601,1.139329,0.886556,1.108853,-0.136829,0.149540,0.112156,0.037511,0.136833,-0.072812
-0.705597,-0.692129,-0.016687,-0.025269,-0.081868,-0.005632,-0.063461,-0.180564,0.357939,1.118017,1.108617,-1.451290,-1.561119,-0.500056,-0.516223,0.934929,-0.713019,-0.031545,-0.030069,-1.093135,1.117031,0.888503,1.107421,-0.134517,0.157288,0.110068,0.035720,0.132892,-0.070060
-0.634846,-0.624425,-0.014203,-0.025942,-0.077252,-0.009468,-0.063930,-0.182064,0.346031,1.026510,1.022621,-1.390661,-1.492709,-0.469512,-0.486380,0.908266,-0.696416,-0.031087,-0.026308,-1.069941,1.090513,0.894608,1.106717,-0.132036,0.165054,0.108442,0.033826,0.127388,-0.067755
-0.564013,-0.557072,-0.011468,-0.026794,-0.072511,-0.012529,-0.064031,-0.183923,0.333410,0.932741,0.935106,-1.329263,-1.421763,-0.437678,-0.455036,0.879429,-0.678108,-0.029416,-0.022375,-1.048383,1.061886,0.902791,1.105767,-0.129471,0.172829,0.106870,0.031881,0.121103,-0.064849
-0.502726,-0.499003,-0.009287,-0.026794,-0.067877,-0.014627,-0.065344,-0.183923,0.317617,0.843015,0.851383,-1.264307,-1.349478,-0.402978,-0.422980,0.846625,-0.657639,-0.029416,-0.018963,-1.025318,1.031755,0.913138,1.105767,-0.126170,0.176089,0.106870,0.030515,0.114904,-0.064849
-0.443356,-0.442551,-0.007106,-0.026430,-0.062841,-0.016573,-0.066980,-0.185899,0.300587,0.753469,0.767437,-1.198827,-1.276440,-0.367461,-0.390578,0.814388,-0.637650,-0.028036,-0.015164,-1.003706,1.004565,0.922872,1.103728,-0.122260,0.177751,0.107669,0.029012,0.109221,-0.063542
-0.387815,-0.389332,-0.004923,-0.026430,-0.056999,-0.016573,-0.069260,-0.188843,0.281084,0.664283,0.683046,-1.132300,-1.201895,-0.330311,-0.357481,0.783284,-0.618620,-0.028036,-0.010590,-0.984999,0.983254,0.931380,1.099777,-0.117130,0.176219,0.107669,0.029012,0.104574,-0.063542
-0.337129,-0.341778,-0.002657,-0.023949,-0.050758,-0.017120,-0.071947,-0.191707,0.261832,0.580003,0.604895,-1.066358,-1.128855,-0.297204,-0.325669,0.754214,-0.601614,-0.028389,-0.006322,-0.967024,0.964849,0.937567,1.094086,-0.110355,0.173398,0.110167,0.028323,0.100993,-0.062210
-0.288871,-0.297057,0.000652,-0.021590,-0.044318,-0.017612,-0.074838,-0.194531,0.242707,0.498175,0.529865,-1.000709,-1.056567,-0.266120,-0.294498,0.726161,-0.585619,-0.029917,-0.002206,-0.949414,0.947897,0.941776,1.087525,-0.102758,0.169932,0.112450,0.028595,0.097947,-0.061361
-0.240935,-0.252667,0.000652,-0.018242,-0.036076,-0.015498,-0.079227,-0.196342,0.224789,0.419067,0.457022,-0.932337,-0.983569,-0.235388,-0.264305,0.702707,-0.572519,-0.029917,0.000029,-0.936619,0.933695,0.941776,1.075636,-0.093295,0.164013,0.115251,0.028595,0.095629,-0.059219
-0.194560,-0.209969,0.002529,-0.015353,-0.028239,-0.014089,-0.084031,-0.197091,0.208543,0.344165,0.388545,-0.864627,-0.912558,-0.205886,-0.236476,0.682210,-0.561170,-0.029708,0.001910,-0.925169,0.922749,0.937116,1.063082,-0.083665,0.157679,0.118116,0.029429,0.092877,-0.056474
-0.151306,-0.170651,0.005154,-0.013385,-0.021210,-0.014089,-0.089667,-0.197091,0.195643,0.277674,0.328799,-0.798240,-0.845522,-0.178842,-0.213377,0.667631,-0.553321,-0.027048,0.001910,-0.916407,0.918312,0.925592,1.049198,-0.073698,0.150518,0.121112,0.030829,0.089256,-0.052523
-0.111579,-0.137044,0.007040,-0.011056,-0.015457,-0.013434,-0.093159,-0.195694,0.186366,0.219516,0.281510,-0.731991,-0.783182,-0.155947,-0.194994,0.657667,-0.545846,-0.024831,0.001393,-0.906634,0.912748,0.910925,1.036671,-0.064346,0.140329,0.124228,0.033046,0.084172,-0.046473
-0.073615,-0.106292,0.008556,-0.008547,-0.010340,-0.013095,-0.095580,-0.194288,0.178901,0.165525,0.240450,-0.665812,-0.723190,-0.135125,-0.178969,0.650012,-0.538558,-0.022834,0.000485,-0.896354,0.906619,0.894688,1.024824,-0.055302,0.128628,0.127405,0.035671,0.078356,-0.039373
-0.041637,-0.082634,0.008556,-0.004447,-0.006356,-0.010982,-0.092880,-0.194288,0.176583,0.123632,0.213878,-0.601482,-0.669791,-0.120120,-0.169648,0.646143,-0.528447,-0.024710,0.000485,-0.888942,0.901489,0.877121,1.020821,-0.047551,0.114214,0.130801,0.039004,0.072119,-0.031023
-0.011852,-0.060562,0.007959,-0.000111,-0.002437,-0.009079,-0.089261,-0.195091,0.175312,0.085265,0.189434,-0.537305,-0.617657,-0.106484,-0.161505,0.642119,-0.516575,-0.026822,0.001300,-0.880092,0.895315,0.860321,1.018935,-0.038647,0.100997,0.133994,0.042406,0.065533,-0.023039
0.013548,-0.041662,0.007959,0.004696,0.001350,-0.007594,-0.083805,-0.195091,0.175312,0.053950,0.169245,-0.473438,-0.568055,-0.095589,-0.155721,0.637785,-0.501183,-0.029407,0.001300,-0.868369,0.887053,0.845059,1.018935,-0.027436,0.090174,0.136780,0.045943,0.058249,-0.015787
0.032552,-0.022956,0.007865,0.009003,0.005780,-0.006461,-0.079382,-0.195930,0.176865,0.035493,0.148591,-0.411895,-0.518919,-0.089736,-0.149272,0.630986,-0.484252,-0.030921,0.002090,-0.857249,0.876958,0.838622,1.023035,-0.016768,0.081442,0.137289,0.049244,0.050289,-0.008865
0.048358,-0.004347,0.007765,0.013061,0.010529,-0.005311,-0.075074,-0.196549,0.179108,0.023464,0.127706,-0.351514,-0.470015,-0.086404,-0.142490,0.622954,-0.466553,-0.031573,0.003085,-0.846431,0.865946,0.836598,1.028012,-0.006373,0.073755,0.136869,0.052428,0.041991,-0.002109
0.056743,0.016353,0.010994,0.016097,0.016591,-0.005311,-0.075074,-0.194719,0.179108,0.025644,0.100231,-0.298869,-0.421404,-0.091515,-0.133105,0.602321,-0.446854,-0.031573,0.003085,-0.831404,0.853397,0.852580,1.041838,0.000240,0.069646,0.134221,0.054132,0.033460,0.003762
0.064546,0.038056,0.014525,0.019031,0.022959,-0.003797,-0.075172,-0.191916,0.178917,0.028881,0.070378,-0.248772,-0.373883,-0.097926,-0.122951,0.578112,-0.426708,-0.031813,0.004418,-0.815699,0.840468,0.873362,1.057657,0.006703,0.065184,0.131833,0.055795,0.025072,0.009185
0.071185,0.061769,0.018659,0.021764,0.029938,-0.003797,-0.075172,-0.187170,0.177366,0.034231,0.035768,-0.203767,-0.328543,-0.106938,-0.111260,0.546749,-0.405666,-0.031813,0.004418,-0.798641,0.826778,0.903744,1.077458,0.012869,0.060015,0.129966,0.057374,0.016969,0.013712
0.076209,0.077908,0.023029,0.023497,0.034439,-0.002796,-0.075672,-0.182348,0.174759,0.039758,0.014264,-0.164866,-0.285547,-0.115336,-0.104652,0.513187,-0.385160,-0.032403,0.006276,-0.780991,0.812240,0.938243,1.097923,0.018143,0.052972,0.128410,0.059837,0.009415,0.017581
0.080426,0.090262,0.027516,0.024319,0.037700,-0.002436,-0.075133,-0.177487,0.171625,0.045372,-0.000688,-0.129016,-0.243724,-0.123428,-0.100586,0.478525,-0.364921,-0.032800,0.008771,-0.763046,0.797277,0.974803,1.118721,0.022973,0.044992,0.127010,0.062742,0.002136,0.021121
0.083976,0.093161,0.034130,0.024319,0.037700,-0.002436,-0.075133,-0.173468,0.168751,0.050106,0.002826,-0.099754,-0.204965,-0.129550,-0.104117,0.443580,-0.347008,-0.032800,0.008771,-0.738353,0.781133,1.011460,1.138579,0.026810,0.038621,0.125084,0.065928,-0.006454,0.023862
0.087905,0.096175,0.041049,0.023736,0.037507,-0.002014,-0.073756,-0.169581,0.166007,0.054366,0.006541,-0.071583,-0.167537,-0.135243,-0.107594,0.409065,-0.329427,-0.032712,0.010518,-0.711541,0.765242,1.048093,1.158440,0.030007,0.032408,0.122795,0.068893,-0.014292,0.026167
0.092589,0.099419,0.048581,0.023736,0.037507,-0.002014,-0.071924,-0.165961,0.163522,0.057679,0.010662,-0.045597,-0.132772,-0.140078,-0.110965,0.375409,-0.312510,-0.032712,0.010518,-0.680491,0.749857,1.084675,1.178307,0.031925,0.026510,0.119779,0.071417,-0.020629,0.027603
0.097668,0.102752,0.055352,0.022582,0.036926,-0.002981,-0.071313,-0.160796,0.161024,0.060495,0.015280,-0.021931,-0.100588,-0.145230,-0.115408,0.343832,-0.295948,-0.031678,0.012129,-0.647266,0.733112,1.119630,1.196398,0.031826,0.020093,0.116945,0.073961,-0.023040,0.028018
0.102943,0.106128,0.061741,0.021014,0.036801,-0.003282,-0.071290,-0.154859,0.158520,0.063063,0.020147,0.000575,-0.069697,-0.150540,-0.120387,0.313295,-0.279564,-0.030211,0.012107,-0.612955,0.715689,1.153771,1.213599,0.030661,0.013415,0.113319,0.076516,-0.023339,0.027663
0.108237,0.109547,0.067705,0.021014,0.036801,-0.003282,-0.071290,-0.149280,0.155627,0.066063,0.025443,0.019187,-0.042560,-0.154831,-0.124217,0.287639,-0.265672,-0.030211,0.012107,-0.580790,0.700675,1.182760,1.227014,0.030661,0.007323,0.113319,0.079160,-0.020172,0.027663
0.113462,0.113038,0.073755,0.019389,0.036336,-0.002601,-0.071669,-0.144433,0.152877,0.068674,0.029977,0.036471,-0.017136,-0.158742,-0.127931,0.263686,-0.252732,-0.028673,0.011384,-0.549258,0.685962,1.209430,1.238372,0.030235,0.001241,0.111970,0.081869,-0.016553,0.027791
0.118549,0.116672,0.079977,0.019389,0.036336,-0.002601,-0.071669,-0.141049,0.150412,0.070505,0.032985,0.051102,0.004860,-0.161893,-0.131412,0.243140,-0.241696,-0.026745,0.011384,-0.518990,0.671848,1.231460,1.245618,0.030235,-0.004824,0.111970,0.084706,-0.012033,0.027791
0.122662,0.119578,0.084522,0.018423,0.035750,-0.002258,-0.070481,-0.139154,0.147873,0.071116,0.034851,0.063741,0.023732,-0.164132,-0.132760,0.226565,-0.232609,-0.025226,0.011619,-0.492338,0.657429,1.248203,1.249479,0.026681,-0.010173,0.110312,0.087308,-0.006801,0.029141
0.126287,0.122119,0.088229,0.017930,0.035100,-0.001865,-0.069498,-0.137578,0.145299,0.070533,0.036049,0.075384,0.041042,-0.165915,-0.133307,0.211975,-0.224496,-0.023352,0.011472,-0.467494,0.642857,1.262303,1.252572,0.021391,-0.016049,0.108523,0.089793,-0.001215,0.031362
0.128841,0.124000,0.088229,0.017930,0.035100,-0.001865,-0.068216,-0.137578,0.142877,0.070533,0.036049,0.084040,0.052847,-0.165915,-0.133307,0.202010,-0.217571,-0.023352,0.011472,-0.452258,0.627580,1.271820,1.252572,0.010677,-0.016049,0.104968,0.091235,0.005536,0.031362
0.131183,0.126318,0.087123,0.017003,0.034140,-0.002710,-0.066932,-0.136360,0.140671,0.070357,0.036850,0.091510,0.062911,-0.165401,-0.134357,0.193272,-0.210818,-0.021550,0.011601,-0.439559,0.612318,1.280633,1.254365,-0.000104,-0.016183,0.101009,0.093090,0.012399,0.032186
0.133104,0.126318,0.084089,0.017003,0.034140,-0.002710,-0.066932,-0.135135,0.138899,0.070357,0.038252,0.096610,0.069496,-0.165401,-0.134357,0.186990,-0.204407,-0.021550,0.011601,-0.431934,0.597083,1.288040,1.256967,-0.011022,-0.013928,0.096243,0.093090,0.019485,0.032186
0.134594,0.128316,0.080123,0.015674,0.033076,-0.003705,-0.067303,-0.134726,0.137573,0.071158,0.039620,0.098580,0.072851,-0.164035,-0.136142,0.182894,-0.198443,-0.019896,0.012871,-0.428559,0.584441,1.295444,1.260809,-0.021735,-0.009954,0.091217,0.093983,0.026114,0.031338
0.135444,0.129924,0.075690,0.014972,0.032268,-0.004269,-0.068711,-0.135195,0.136529,0.072170,0.039987,0.098849,0.074593,-0.163756,-0.138153,0.179380,-0.192703,-0.018505,0.014035,-0.427811,0.573097,1.302848,1.265272,-0.032347,-0.005119,0.086061,0.094067,0.032515,0.030376
0.135444,0.129924,0.073136,0.014972,0.032268,-0.004269,-0.068711,-0.135195,0.136529,0.072170,0.039987,0.095222,0.072424,-0.163756,-0.138153,0.179380,-0.188621,-0.018505,0.014035,-0.427811,0.567305,1.308979,1.271784,-0.040268,0.002482,0.082788,0.094067,0.038468,0.028518
0.135709,0.131372,0.071432,0.014458,0.031876,-0.003211,-0.069104,-0.136750,0.136992,0.072520,0.038712,0.090321,0.069196,-0.164072,-0.138077,0.179356,-0.185205,-0.017963,0.014586,-0.429367,0.564474,1.315128,1.278343,-0.046995,0.009691,0.080148,0.092506,0.044417,0.026520
0.135709,0.131372,0.071432,0.014458,0.031876,-0.003211,-0.069104,-0.138838,0.136992,0.072520,0.036490,0.082872,0.063849,-0.164072,-0.136742,0.180819,-0.183124,-0.017963,0.014586,-0.432530,0.567563,1.321313,1.284995,-0.051336,0.016111,0.078771,0.092506,0.050358,0.024246
0.134190,0.132513,0.072308,0.014645,0.031628,-0.001969,-0.069568,-0.140531,0.138551,0.073255,0.034362,0.073909,0.057392,-0.163150,-0.135342,0.183224,-0.182334,-0.018765,0.014556,-0.436419,0.573579,1.326934,1.291495,-0.055155,0.020403,0.077537,0.091121,0.056276,0.022325
0.133378,0.133043,0.074621,0.014428,0.031237,-0.000885,-0.070697,-0.142027,0.139336,0.074059,0.032281,0.064188,0.050380,-0.162575,-0.133560,0.186100,-0.182238,-0.019272,0.015586,-0.440671,0.581058,1.332275,1.297919,-0.058713,0.023683,0.076373,0.090725,0.062183,0.019868
0.132157,0.133043,0.074621,0.014428,0.031237,-0.000885,-0.070697,-0.143891,0.141029,0.074059,0.030804,0.052407,0.041250,-0.162575,-0.133560,0.190680,-0.183731,-0.019272,0.015586,-0.447883,0.590922,1.335485,1.305683,-0.061986,0.023683,0.076373,0.090725,0.066556,0.019868
0.130911,0.133373,0.074994,0.013817,0.030622,0.000013,-0.071968,-0.145920,0.143381,0.074587,0.029048,0.039099,0.030316,-0.162583,-0.132080,0.195953,-0.185812,-0.018954,0.016150,-0.458713,0.601821,1.338866,1.313949,-0.065070,0.022785,0.076052,0.090216,0.070062,0.018360
0.129617,0.133373,0.073643,0.013817,0.030622,0.000013,-0.071968,-0.148280,0.147052,0.074587,0.026737,0.022737,0.015775,-0.161257,-0.130124,0.202611,-0.189068,-0.018954,0.016150,-0.476781,0.614788,1.342590,1.323219,-0.067775,0.019931,0.076052,0.090216,0.071832,0.018360
0.128220,0.133541,0.070882,0.013222,0.029288,0.000389,-0.071780,-0.152017,0.152006,0.073009,0.023059,0.000426,-0.004675,-0.158502,-0.126854,0.211279,-0.194163,-0.018777,0.016722,-0.502728,0.630923,1.346881,1.332729,-0.068260,0.013968,0.077165,0.089387,0.070643,0.017101
0.126771,0.133718,0.067417,0.012327,0.028359,-0.000984,-0.071170,-0.156443,0.157601,0.070476,0.018696,-0.024860,-0.028079,-0.155034,-0.122928,0.220954,-0.200179,-0.019339,0.018019,-0.532614,0.648641,1.350989,1.342359,-0.067844,0.006451,0.078623,0.088943,0.067977,0.016638
0.124502,0.132097,0.063322,0.012327,0.026481,-0.000984,-0.068186,-0.161905,0.160901,0.064888,0.012940,-0.055880,-0.058038,-0.149869,-0.118281,0.235008,-0.210823,-0.019339,0.018019,-0.560476,0.663850,1.350989,1.346886,-0.062878,-0.001206,0.082579,0.088943,0.060960,0.018365
0.121890,0.129787,0.059951,0.011298,0.024289,-0.002461,-0.064732,-0.167408,0.163852,0.058058,0.006762,-0.090470,-0.092033,-0.143455,-0.112967,0.251232,-0.223548,-0.020217,0.019568,-0.585958,0.679231,1.348542,1.349477,-0.057028,-0.009134,0.086928,0.089392,0.053079,0.020855
0.118593,0.126101,0.058026,0.009865,0.021472,-0.004656,-0.060335,-0.172995,0.166104,0.048747,-0.000261,-0.132202,-0.134101,-0.134543,-0.106315,0.271797,-0.240434,-0.020217,0.019568,-0.606680,0.694953,1.342597,1.348194,-0.049409,-0.017607,0.092062,0.089392,0.043472,0.024866
0.114629,0.115636,0.056222,0.008061,0.017387,-0.007366,-0.054843,-0.176944,0.168512,0.037412,0.003942,-0.183122,-0.184652,-0.123170,-0.104592,0.298172,-0.262759,-0.020924,0.020464,-0.625010,0.710826,1.332026,1.341710,-0.041821,-0.027625,0.096748,0.090187,0.034687,0.028173
0.110332,0.101783,0.054479,0.006073,0.012670,-0.010334,-0.048803,-0.180800,0.170999,0.025065,0.013756,-0.238635,-0.239445,-0.110568,-0.105085,0.327453,-0.287804,-0.021370,0.020312,-0.642145,0.726776,1.319143,1.332626,-0.034249,-0.038416,0.101209,0.089383,0.026312,0.031128
0.098392,0.074524,0.051476,0.003346,0.005904,-0.013407,-0.043875,-0.180800,0.172597,0.025065,0.048903,-0.304929,-0.303025,-0.102933,-0.118630,0.363355,-0.319733,-0.021370,0.020312,-0.658240,0.739486,1.300508,1.315327,-0.028080,-0.048385,0.103661,0.089383,0.023605,0.029325
0.081169,0.045302,0.048513,-0.000029,-0.001462,-0.016518,-0.039532,-0.180556,0.174543,0.035243,0.087883,-0.373769,-0.368710,-0.100881,-0.133569,0.399967,-0.352925,-0.021083,0.020365,-0.675145,0.751965,1.281606,1.296700,-0.022972,-0.057362,0.105269,0.087607,0.023546,0.025997
0.053382,0.012154,0.045628,-0.004700,-0.010024,-0.019705,-0.036356,-0.180556,0.174543,0.067690,0.134533,-0.447702,-0.438606,-0.109996,-0.151295,0.438001,-0.388645,-0.021083,0.020365,-0.693668,0.763981,1.262174,1.275415,-0.019985,-0.064357,0.105269,0.085265,0.028782,0.019619
0.018944,-0.025233,0.042305,-0.010211,-0.019447,-0.022951,-0.033339,-0.177246,0.176735,0.112808,0.187760,-0.524747,-0.513260,-0.126333,-0.171897,0.476225,-0.423860,-0.019765,0.020658,-0.714013,0.776858,1.243422,1.255410,-0.020467,-0.069402,0.103765,0.082338,0.037320,0.011779
-0.018818,-0.064739,0.038763,-0.016143,-0.029300,-0.026225,-0.030401,-0.173736,0.178704,0.164260,0.244276,-0.603349,-0.590291,-0.146280,-0.193937,0.514543,-0.458824,-0.017617,0.020877,-0.735270,0.790164,1.225010,1.236045,-0.022684,-0.073873,0.101550,0.079118,0.047510,0.003209
-0.058251,-0.104282,0.034582,-0.021531,-0.039279,-0.029038,-0.026696,-0.171161,0.181366,0.220942,0.302706,-0.681043,-0.668883,-0.169672,-0.216583,0.551186,-0.488516,-0.017617,0.020877,-0.756938,0.802989,1.206187,1.219063,-0.028089,-0.073873,0.098939,0.076316,0.056927,-0.004255
-0.099222,-0.143477,0.030356,-0.025899,-0.048540,-0.030913,-0.023303,-0.169444,0.185261,0.281529,0.361313,-0.758925,-0.747664,-0.194599,-0.239460,0.587565,-0.517699,-0.017121,0.021648,-0.779500,0.816883,1.187071,1.202272,-0.033546,-0.073319,0.096314,0.073617,0.065329,-0.011110
-0.143274,-0.181979,0.026039,-0.028225,-0.056364,-0.030913,-0.020533,-0.169444,0.191620,0.349932,0.420280,-0.837193,-0.826834,-0.222599,-0.262803,0.623422,-0.545870,-0.018439,0.021648,-0.803852,0.832918,1.167367,1.185863,-0.039107,-0.073319,0.093663,0.071127,0.071700,-0.016747
-0.188615,-0.219776,0.022081,-0.028098,-0.062300,-0.029096,-0.017905,-0.169725,0.200937,0.423941,0.480955,-0.915309,-0.906066,-0.253839,-0.288721,0.658795,-0.574118,-0.019367,0.022620,-0.831598,0.853112,1.146818,1.169225,-0.044653,-0.071032,0.090988,0.068502,0.076487,-0.021536
-0.234601,-0.257222,0.018303,-0.026744,-0.067291,-0.025792,-0.015348,-0.170877,0.211733,0.500755,0.542484,-0.993349,-0.985328,-0.286700,-0.315926,0.693926,-0.602406,-0.019855,0.023447,-0.861040,0.875387,1.125848,1.152472,-0.050193,-0.069036,0.088301,0.065811,0.080481,-0.025901
-0.281187,-0.298356,0.015121,-0.024377,-0.072383,-0.021513,-0.012474,-0.170877,0.224443,0.577678,0.609814,-1.069384,-1.064695,-0.320318,-0.344882,0.729299,-0.631936,-0.018238,0.023447,-0.894408,0.903890,1.103829,1.134131,-0.055722,-0.065725,0.085864,0.063815,0.083130,-0.029143
-0.328855,-0.341812,0.012122,-0.022799,-0.078239,-0.017611,-0.009565,-0.170901,0.237155,0.654894,0.679406,-1.144419,-1.144190,-0.353700,-0.374312,0.765002,-0.661651,-0.016337,0.023097,-0.928670,0.933371,1.081278,1.115965,-0.061911,-0.062071,0.083279,0.062015,0.085771,-0.032158
-0.378682,-0.389907,0.009488,-0.022799,-0.085625,-0.014463,-0.006589,-0.169223,0.249867,0.732693,0.753519,-1.217452,-1.223935,-0.386607,-0.404691,0.801362,-0.691734,-0.013873,0.021361,-0.964721,0.964804,1.057663,1.098148,-0.069419,-0.057731,0.080398,0.060608,0.088396,-0.034718
-0.431730,-0.441709,0.006884,-0.024022,-0.093289,-0.011831,-0.003448,-0.165805,0.260509,0.810716,0.828620,-1.287555,-1.301615,-0.416314,-0.433638,0.838457,-0.721383,-0.011241,0.018560,-1.002470,0.998199,1.033956,1.080973,-0.078279,-0.053545,0.077296,0.059182,0.091129,-0.037122
-0.486387,-0.495362,0.004295,-0.025577,-0.101093,-0.009457,-0.000225,-0.161518,0.270115,0.888846,0.904211,-1.356190,-1.378257,-0.444419,-0.461866,0.875919,-0.750813,-0.008525,0.015228,-1.041067,1.032573,1.010205,1.064119,-0.087814,-0.049435,0.074084,0.056722,0.093915,-0.039448
-0.541270,-0.549619,0.002088,-0.025577,-0.105543,-0.007204,0.001421,-0.157239,0.274143,0.959143,0.972640,-1.416954,-1.447431,-0.470755,-0.485754,0.909105,-0.778140,-0.006917,0.011451,-1.076287,1.069025,0.989225,1.047871,-0.095731,-0.046438,0.071490,0.056722,0.096242,-0.041477
-0.599625,-0.607440,-0.000137,-0.025870,-0.109845,-0.004949,0.002518,-0.152646,0.278522,1.033022,1.044459,-1.478009,-1.517959,-0.498290,-0.510582,0.942713,-0.806053,-0.005209,0.007695,-1.111784,1.107572,0.968288,1.031715,-0.103571,-0.043334,0.069002,0.054934,0.098606,-0.043541
-0.664924,-0.672388,-0.002398,-0.025870,-0.113850,-0.002692,0.002518,-0.147425,0.283606,1.114067,1.123057,-1.539647,-1.591194,-0.528220,-0.537294,0.977163,-0.835136,-0.003301,0.003984,-1.147837,1.150310,0.947437,1.015743,-0.111260,-0.040013,0.066727,0.054934,0.101047,-0.045674
-0.732526,-0.740703,-0.004469,-0.028278,-0.118965,-0.001940,0.004710,-0.140145,0.289405,1.196797,1.204542,-1.599040,-1.663654,-0.557036,-0.564448,1.009813,-0.861886,-0.000722,0.000301,-1.180176,1.191908,0.928705,1.002042,-0.118504,-0.036585,0.064661,0.053644,0.103583,-0.047644
-0.801280,-0.810704,-0.007402,-0.030532,-0.124634,-0.001433,0.007481,-0.131835,0.295562,1.280370,1.287471,-1.657313,-1.735726,-0.585294,-0.591824,1.041564,-0.887470,0.002193,-0.003369,-1.210657,1.232937,0.911032,0.989477,-0.125526,-0.033104,0.062701,0.052580,0.106166,-0.049533
-0.872406,-0.883571,-0.007402,-0.030532,-0.127456,-0.001433,0.013219,-0.121852,0.304651,1.365831,1.370906,-1.709009,-1.803153,-0.610261,-0.617723,1.068405,-0.904689,0.005432,-0.006264,-1.231730,1.263293,0.898471,0.980664,-0.132316,-0.029230,0.061095,0.052580,0.109053,-0.051182
-0.944356,-0.956854,-0.009010,-0.027986,-0.129337,0.001888,0.018435,-0.113122,0.313961,1.451479,1.453478,-1.757605,-1.867545,-0.634484,-0.642051,1.094019,-0.918839,0.008652,-0.009029,-1.251298,1.290573,0.887170,0.972930,-0.139022,-0.025238,0.059048,0.051501,0.112052,-0.052848
-1.017955,-1.030967,-0.009010,-0.022178,-0.129337,0.008908,0.022605,-0.106898,0.323716,1.537503,1.534323,-1.799998,-1.925865,-0.657219,-0.663236,1.117177,-0.926849,0.011835,-0.009029,-1.267859,1.311705,0.878389,0.967351,-0.145559,-0.021011,0.059048,0.051501,0.115278,-0.054549
-1.091188,-1.104157,-0.011584,-0.016177,-0.132481,0.015526,0.026337,-0.102449,0.334011,1.621916,1.613579,-1.837711,-1.977830,-0.677083,-0.681773,1.137345,-0.930643,0.014496,-0.010615,-1.283251,1.331675,0.870207,0.964184,-0.151403,-0.016700,0.057493,0.050514,0.118282,-0.056042
-1.164239,-1.176887,-0.014470,-0.010080,-0.136523,0.021943,0.029851,-0.098888,0.344578,1.705526,1.692042,-1.873085,-2.026619,-0.695512,-0.698987,1.156020,-0.932329,0.016897,-0.011368,-1.298059,1.351065,0.862325,0.962221,-0.156902,-0.012349,0.056913,0.049658,0.121176,-0.058191
-1.235639,-1.247544,-0.019400,-0.005938,-0.143759,0.025086,0.033702,-0.094602,0.356714,1.785045,1.768589,-1.903566,-2.068594,-0.706582,-0.712377,1.170212,-0.930672,0.019368,-0.013143,-1.312143,1.373039,0.855044,0.964465,-0.161261,-0.007932,0.056913,0.049658,0.123816,-0.058191
-1.307088,-1.317817,-0.024657,-0.001984,-0.150591,0.027879,0.037154,-0.090708,0.369205,1.863420,1.843928,-1.933405,-2.106902,-0.715677,-0.723787,1.183487,-0.928167,0.022317,-0.015375,-1.326589,1.390151,0.848648,0.967524,-0.165389,-0.003771,0.056229,0.048879,0.126499,-0.059752
-1.378635,-1.387321,-0.030569,0.001594,-0.156617,0.027879,0.037154,-0.087598,0.382407,1.939505,1.916848,-1.961964,-2.137875,-0.720820,-0.731240,1.194930,-0.923966,0.026219,-0.018524,-1.341758,1.397538,0.844020,0.972216,-0.169050,-0.000121,0.056229,0.048879,0.129269,-0.059752
-1.449782,-1.455529,-0.036134,0.004564,-0.162056,0.027702,0.036752,-0.085745,0.395632,2.013125,1.987115,-1.990075,-2.160497,-0.723378,-0.734779,1.203610,-0.921570,0.029878,-0.023098,-1.358977,1.400000,0.841587,0.976529,-0.172527,0.002530,0.055640,0.048232,0.131835,-0.061176
-1.520728,-1.523089,-0.041526,0.007166,-0.167201,0.026390,0.034823,-0.083961,0.408869,2.085514,2.056056,-2.017962,-2.178944,-0.724644,-0.736360,1.210908,-0.920772,0.033416,-0.028386,-1.377219,1.400000,0.840252,0.980651,-0.175911,0.004682,0.055116,0.047634,0.134298,-0.061799
-1.550292,-1.551236,-0.044405,0.007166,-0.172252,0.027734,0.032762,-0.083961,0.434235,2.136543,2.105351,-2.042949,-2.191247,-0.730800,-0.742466,1.210908,-0.920772,0.035840,-0.032850,-1.390887,1.400000,0.842082,0.984610,-0.179316,0.006196,0.055116,0.047634,0.136036,-0.061799
-1.570000,-1.570000,-0.046956,0.006059,-0.177231,0.029806,0.030532,-0.082872,0.463643,2.179540,2.147348,-2.065842,-2.203393,-0.738790,-0.750022,1.209444,-0.922045,0.037945,-0.036471,-1.400000,1.400000,0.843921,0.988524,-0.182614,0.007703,0.055056,0.046924,0.138078,-0.062673
-1.570000,-1.570000,-0.048850,0.002934,-0.182066,0.033336,0.030532,-0.082872,0.501134,2.206479,2.174753,-2.084549,-2.215221,-0.750448,-0.760481,1.205770,-0.923777,0.039411,-0.038406,-1.400000,1.400000,0.845778,0.992348,-0.185697,0.009197,0.055056,0.046924,0.138078,-0.062673
-1.570000,-1.570000,-0.050113,-0.001413,-0.187036,0.037431,0.028901,-0.081174,0.516178,2.234709,2.203895,-2.083736,-2.207700,-0.762409,-0.771117,1.194919,-0.920814,0.040561,-0.040159,-1.400000,1.400000,0.847946,0.996432,-0.189795,0.011838,0.055146,0.045838,0.139503,-0.063420
-1.570000,-1.570000,-0.050110,-0.006373,-0.192073,0.041810,0.027739,-0.079425,0.520000,2.263585,2.233907,-2.073164,-2.190504,-0.774521,-0.781842,1.180478,-0.915503,0.041601,-0.041820,-1.400000,1.400000,0.850269,1.000646,-0.194400,0.015052,0.055093,0.044470,0.140519,-0.063561
-1.570000,-1.570000,-0.050110,-0.009559,-0.195427,0.046908,0.026516,-0.077362,0.520000,2.291418,2.261820,-2.047191,-2.158726,-0.782431,-0.788537,1.159054,-0.904378,0.041601,-0.043443,-1.400000,1.400000,0.857013,1.007509,-0.199248,0.019336,0.055093,0.044470,0.140519,-0.063561
-1.570000,-1.570000,-0.048814,-0.012118,-0.198361,0.051985,0.024860,-0.075428,0.520000,2.318917,2.289021,-2.019968,-2.125309,-0.789364,-0.793877,1.136137,-0.892368,0.041981,-0.045200,-1.400000,1.400000,0.864347,1.015145,-0.203815,0.023535,0.055975,0.043292,0.140966,-0.063585
-1.570000,-1.570000,-0.046829,-0.012118,-0.200457,0.057021,0.022335,-0.075428,0.520000,2.345750,2.314799,-1.990247,-2.088614,-0.794341,-0.796506,1.110233,-0.878589,0.041981,-0.045200,-1.400000,1.400000,0.872858,1.024329,-0.207817,0.027564,0.055975,0.043292,0.140966,-0.063585
-1.570000,-1.570000,-0.044831,-0.012553,-0.203104,0.062650,0.018621,-0.074869,0.520000,2.371909,2.339734,-1.959601,-2.050859,-0.797983,-0.796730,1.079756,-0.862292,0.040938,-0.046603,-1.400000,1.400000,0.884747,1.036245,-0.212034,0.032492,0.057550,0.042292,0.140443,-0.064233
-1.570000,-1.570000,-0.042826,-0.011937,-0.206026,0.068577,0.014314,-0.074669,0.520000,2.397731,2.364247,-1.928493,-2.012576,-0.800956,-0.796078,1.046993,-0.844738,0.039345,-0.047331,-1.400000,1.400000,0.898323,1.049526,-0.216358,0.037869,0.058538,0.041366,0.139552,-0.064703
-1.570000,-1.570000,-0.040640,-0.011937,-0.209571,0.070632,0.011414,-0.074669,0.520000,2.418937,2.385100,-1.899417,-1.975338,-0.800956,-0.793361,1.013918,-0.826179,0.035950,-0.048615,-1.400000,1.400000,0.915505,1.064590,-0.219569,0.043890,0.060003,0.041366,0.139552,-0.064703
-1.570000,-1.570000,-0.038528,-0.010475,-0.213231,0.070945,0.008607,-0.073608,0.520000,2.439191,2.405339,-1.870918,-1.937902,-0.799311,-0.789863,0.981232,-0.807604,0.032430,-0.050029,-1.400000,1.400000,0.933017,1.079305,-0.222258,0.049650,0.061573,0.040941,0.138715,-0.065193
-1.570000,-1.570000,-0.036566,-0.010475,-0.217123,0.067772,0.005985,-0.072009,0.520000,2.457538,2.424350,-1.843572,-1.900070,-0.795689,-0.784804,0.949328,-0.788997,0.028658,-0.051701,-1.400000,1.400000,0.951187,1.093322,-0.223904,0.054890,0.063352,0.040941,0.138715,-0.065193
-1.570000,-1.570000,-0.034867,-0.009984,-0.220119,0.064735,0.002952,-0.070674,0.520000,2.473159,2.440395,-1.818940,-1.866399,-0.791699,-0.779446,0.921031,-0.772352,0.024591,-0.053208,-1.400000,1.400000,0.968340,1.105120,-0.225501,0.059397,0.064970,0.040278,0.137633,-0.065528
-1.570000,-1.570000,-0.033299,-0.010589,-0.222065,0.060811,-0.000288,-0.069472,0.520000,2.487417,2.454957,-1.795664,-1.834807,-0.787523,-0.773938,0.894539,-0.756688,0.020377,-0.054634,-1.400000,1.400000,0.984983,1.115809,-0.227074,0.063538,0.066507,0.039788,0.136171,-0.066572
-1.570000,-1.570000,-0.030420,-0.010589,-0.222065,0.060811,-0.005191,-0.069472,0.520000,2.497985,2.464936,-1.777268,-1.810709,-0.784269,-0.769650,0.870071,-0.741981,0.015191,-0.056566,-1.400000,1.400000,1.002058,1.126037,-0.228734,0.067456,0.068072,0.039788,0.136171,-0.066572
-1.570000,-1.570000,-0.027272,-0.011970,-0.220866,0.059440,-0.010149,-0.070340,0.520000,2.507840,2.474083,-1.760738,-1.788864,-0.780892,-0.765742,0.846756,-0.728205,0.009841,-0.058762,-1.400000,1.400000,1.019072,1.136593,-0.230620,0.071198,0.069683,0.039407,0.134693,-0.067563
-1.570000,-1.570000,-0.023584,-0.011970,-0.219076,0.058197,-0.015218,-0.070340,0.520000,2.516273,2.481566,-1.747938,-1.771525,-0.777272,-0.762596,0.825745,-0.716290,0.004165,-0.061486,-1.400000,1.400000,1.035966,1.147807,-0.230620,0.074589,0.071386,0.039407,0.134693,-0.067563
-1.570000,-1.570000,-0.020565,-0.013995,-0.217516,0.056541,-0.019598,-0.071924,0.520000,2.521777,2.486778,-1.739839,-1.760085,-0.774787,-0.760483,0.810383,-0.707445,-0.000215,-0.063849,-1.400000,1.397809,1.049133,1.156407,-0.231954,0.077276,0.072784,0.039307,0.133924,-0.068397
-1.570000,-1.570000,-0.017881,-0.015669,-0.216553,0.054678,-0.023633,-0.072765,0.520000,2.526823,2.490852,-1.733401,-1.751595,-0.772869,-0.759103,0.797845,-0.700134,-0.003948,-0.066031,-1.400000,1.394523,1.060436,1.163699,-0.233459,0.079610,0.074260,0.039107,0.133848,-0.069392
-1.570000,-1.570000,-0.015832,-0.017528,-0.216553,0.052490,-0.027110,-0.074794,0.520000,2.526823,2.492322,-1.733401,-1.747948,-0.772869,-0.759103,0.786699,-0.694172,-0.008133,-0.069055,-1.400000,1.388337,1.071353,1.170194,-0.233459,0.081851,0.074260,0.039107,0.133848,-0.069392
-1.570000,-1.570000,-0.013847,-0.019197,-0.216851,0.050423,-0.029929,-0.076971,0.520000,2.526910,2.492786,-1.734363,-1.746844,-0.773984,-0.760178,0.776473,-0.688924,-0.012247,-0.072323,-1.400000,1.384213,1.081941,1.176206,-0.235195,0.083945,0.075506,0.038728,0.133886,-0.070697
-1.570000,-1.570000,-0.013847,-0.020489,-0.216851,0.048601,-0.031431,-0.079447,0.520000,2.524154,2.491236,-1.739318,-1.750828,-0.776111,-0.762754,0.768085,-0.685104,-0.016217,-0.076080,-1.400000,1.384213,1.091871,1.181255,-0.235195,0.085747,0.075506,0.038728,0.133886,-0.070697
-1.570000,-1.570000,-0.013405,-0.021550,-0.217894,0.046938,-0.031932,-0.082212,0.520000,2.517734,2.486399,-1.749026,-1.761003,-0.779740,-0.767060,0.762357,-0.683162,-0.018997,-0.079690,-1.400000,1.386597,1.101414,1.186144,-0.236385,0.087413,0.076636,0.038227,0.133894,-0.072174
-1.570000,-1.570000,-0.013581,-0.022072,-0.218637,0.045354,-0.031931,-0.085122,0.520000,2.509483,2.479918,-1.761111,-1.774273,-0.784119,-0.772232,0.757074,-0.682493,-0.021454,-0.083226,-1.400000,1.390967,1.110765,1.190952,-0.237261,0.089011,0.077597,0.037268,0.134964,-0.072980
-1.570000,-1.570000,-0.013581,-0.022072,-0.218637,0.042312,-0.029778,-0.088376,0.520000,2.495149,2.467738,-1.780928,-1.794263,-0.790173,-0.779992,0.757074,-0.684019,-0.021454,-0.086371,-1.400000,1.394196,1.119481,1.196065,-0.237261,0.090487,0.077597,0.037268,0.134964,-0.074366
-1.570000,-1.570000,-0.013117,-0.021538,-0.218278,0.039425,-0.027596,-0.091833,0.520000,2.479404,2.454115,-1.801803,-1.815390,-0.796231,-0.787744,0.756683,-0.685879,-0.021066,-0.089106,-1.400000,1.396923,1.127931,1.200816,-0.238260,0.091949,0.078453,0.036596,0.136462,-0.075780
-1.570000,-1.570000,-0.013117,-0.020263,-0.216518,0.036845,-0.025358,-0.095697,0.520000,2.460840,2.437606,-1.824792,-1.838792,-0.802298,-0.795478,0.758160,-0.688409,-0.021066,-0.091021,-1.400000,1.398645,1.135849,1.204840,-0.238260,0.093381,0.078453,0.036596,0.136462,-0.077250
-1.570000,-1.570000,-0.012795,-0.019519,-0.213541,0.034279,-0.024611,-0.100123,0.520000,2.440669,2.418653,-1.847641,-1.862659,-0.807831,-0.801962,0.761485,-0.691413,-0.019548,-0.092205,-1.400000,1.399609,1.143013,1.207642,-0.239169,0.094771,0.079238,0.035995,0.138295,-0.078729
-1.570000,-1.570000,-0.012758,-0.019199,-0.209956,0.031719,-0.024715,-0.104830,0.520000,2.419694,2.398478,-1.870420,-1.886760,-0.813097,-0.807822,0.765734,-0.694653,-0.017709,-0.092760,-1.400000,1.400000,1.149799,1.209833,-0.239831,0.096184,0.079868,0.035508,0.140164,-0.080214
-1.570000,-1.570000,-0.012758,-0.020471,-0.205211,0.027094,-0.024715,-0.108782,0.520000,2.395772,2.375608,-1.892335,-1.910712,-0.815882,-0.810852,0.771517,-0.699040,-0.017709,-0.092760,-1.400000,1.400000,1.153811,1.209833,-0.239831,0.096184,0.079868,0.035508,0.140164,-0.081721
-1.570000,-1.570000,-0.013524,-0.021946,-0.200015,0.022343,-0.025600,-0.112307,0.520000,2.371305,2.352039,-1.913530,-1.934183,-0.817298,-0.812379,0.777823,-0.703962,-0.017158,-0.092767,-1.400000,1.400000,1.156899,1.209253,-0.240258,0.096889,0.080365,0.035018,0.142086,-0.083173
-1.570000,-1.570000,-0.013524,-0.023826,-0.193918,0.017339,-0.025600,-0.114979,0.520000,2.345743,2.327069,-1.933283,-1.956695,-0.815976,-0.812379,0.785176,-0.709955,-0.017158,-0.092767,-1.400000,1.400000,1.158137,1.207724,-0.240258,0.096889,0.080365,0.035018,0.142086,-0.084513
-1.570000,-1.570000,-0.014175,-0.025689,-0.188074,0.014228,-0.026736,-0.117307,0.520000,2.319566,2.301013,-1.950879,-1.978208,-0.811826,-0.809405,0.793539,-0.716705,-0.016078,-0.092504,-1.400000,1.400000,1.157643,1.205191,-0.240405,0.097086,0.080846,0.034381,0.144075,-0.085904
-1.570000,-1.570000,-0.015246,-0.027542,-0.182358,0.012063,-0.027442,-0.120350,0.520000,2.293082,2.274413,-1.967396,-1.999221,-0.806262,-0.805682,0.802407,-0.723833,-0.015622,-0.092148,-1.400000,1.400000,1.156282,1.202155,-0.239623,0.097079,0.081412,0.033629,0.145837,-0.087320
-1.570000,-1.570000,-0.015246,-0.029374,-0.178115,0.010781,-0.027442,-0.120350,0.520000,2.265444,2.247496,-1.980316,-2.017837,-0.797730,-0.798294,0.812657,-0.732090,-0.015622,-0.090266,-1.400000,1.400000,1.153028,1.198400,-0.239623,0.097079,0.081412,0.033629,0.145837,-0.088681
-1.570000,-1.570000,-0.016626,-0.031332,-0.174593,0.010553,-0.027941,-0.122074,0.520000,2.237957,2.220915,-1.991370,-2.034971,-0.788382,-0.789503,0.823536,-0.740627,-0.015582,-0.088187,-1.400000,1.400000,1.149346,1.194273,-0.238304,0.096685,0.082075,0.032847,0.147290,-0.090522
-1.570000,-1.570000,-0.018513,-0.033543,-0.172510,0.010553,-0.027941,-0.122074,0.520000,2.210773,2.195004,-1.998694,-2.049145,-0.777406,-0.777905,0.835673,-0.749721,-0.015582,-0.085716,-1.400000,1.400000,1.144810,1.189402,-0.238304,0.096685,0.082075,0.032847,0.147290,-0.090522
-1.570000,-1.570000,-0.020671,-0.035509,-0.171096,0.012985,-0.028297,-0.123293,0.520000,2.184576,2.169460,-2.002566,-2.061416,-0.764550,-0.765138,0.849304,-0.759420,-0.015908,-0.082724,-1.400000,1.400000,1.139004,1.183840,-0.235745,0.095588,0.082813,0.032035,0.148611,-0.092284
-1.570000,-1.570000,-0.022963,-0.037354,-0.169781,0.015692,-0.027328,-0.123674,0.520000,2.158873,2.144100,-2.003990,-2.072737,-0.750754,-0.751787,0.863680,-0.769421,-0.016082,-0.079471,-1.400000,1.400000,1.132563,1.177933,-0.233267,0.094175,0.083563,0.031198,0.149740,-0.093882
-1.570000,-1.568420,-0.024885,-0.038642,-0.169781,0.017163,-0.027328,-0.123674,0.520000,2.132990,2.118229,-2.003990,-2.081776,-0.735348,-0.738355,0.878531,-0.780188,-0.016082,-0.075351,-1.400000,1.400000,1.123908,1.172835,-0.230263,0.094175,0.083563,0.031198,0.149740,-0.093882
-1.565359,-1.559248,-0.026653,-0.039854,-0.168355,0.019222,-0.027137,-0.124949,0.517628,2.104005,2.087480,-1.999209,-2.087284,-0.718442,-0.726537,0.893348,-0.790366,-0.015767,-0.071243,-1.400000,1.400000,1.113944,1.167729,-0.227315,0.093539,0.084449,0.030516,0.150410,-0.095187
-1.551437,-1.534895,-0.028111,-0.039854,-0.168355,0.022461,-0.028567,-0.129601,0.510513,2.068816,2.046977,-1.987035,-2.085728,-0.698539,-0.717950,0.908098,-0.799368,-0.015767,-0.067161,-1.400000,1.400000,1.101364,1.162611,-0.224482,0.093539,0.084449,0.030516,0.150410,-0.095187
-1.510650,-1.491135,-0.028383,-0.038617,-0.164197,0.022706,-0.030585,-0.134944,0.500691,2.016815,1.993875,-1.963234,-2.069069,-0.688795,-0.711073,0.921389,-0.804293,-0.016702,-0.063023,-1.400000,1.391218,1.085268,1.158016,-0.221247,0.095250,0.085938,0.030023,0.149964,-0.095724
-1.456430,-1.437674,-0.028353,-0.036231,-0.159208,0.021455,-0.032896,-0.140633,0.489515,1.956409,1.934473,-1.933620,-2.044858,-0.684132,-0.705051,0.933950,-0.807180,-0.018824,-0.058857,-1.399999,1.378045,1.067414,1.153682,-0.217810,0.097528,0.087387,0.028982,0.148758,-0.095141
-1.397586,-1.379722,-0.028353,-0.033727,-0.153339,0.018068,-0.035179,-0.145590,0.480639,1.896143,1.874736,-1.888970,-2.004859,-0.679582,-0.699347,0.942953,-0.809199,-0.018824,-0.055905,-1.382208,1.349907,1.050448,1.146347,-0.214698,0.101055,0.088970,0.028982,0.148758,-0.095141
-1.337718,-1.320603,-0.029416,-0.031455,-0.147408,0.015302,-0.037357,-0.150344,0.472214,1.834664,1.813769,-1.839002,-1.962176,-0.674098,-0.693114,0.954520,-0.811256,-0.020254,-0.052632,-1.359442,1.322335,1.029932,1.137509,-0.210724,0.104897,0.090493,0.027562,0.147755,-0.094082
-1.275807,-1.259154,-0.032052,-0.029645,-0.141351,0.013780,-0.039326,-0.154690,0.464694,1.770764,1.750348,-1.778407,-1.914128,-0.666746,-0.685825,0.971216,-0.811256,-0.021845,-0.048719,-1.326729,1.295897,1.002318,1.125666,-0.205030,0.109369,0.091899,0.025737,0.147755,-0.092430
-1.211236,-1.195528,-0.035621,-0.028070,-0.135095,0.010959,-0.040959,-0.158023,0.458864,1.703763,1.684689,-1.707759,-1.860193,-0.657385,-0.676268,0.992599,-0.810308,-0.023280,-0.044983,-1.288609,1.267792,0.968723,1.113306,-0.197058,0.114204,0.093056,0.023628,0.146946,-0.089790
-1.145336,-1.130813,-0.039657,-0.027097,-0.128741,0.007490,-0.041936,-0.160850,0.453880,1.635214,1.617913,-1.632085,-1.803315,-0.647018,-0.665576,1.016325,-0.807821,-0.025022,-0.041338,-1.247786,1.238853,0.932137,1.100688,-0.187947,0.119220,0.093745,0.021376,0.145864,-0.086658
-1.082642,-1.069748,-0.043382,-0.025836,-0.122837,-0.000954,-0.041936,-0.162826,0.448318,1.567346,1.552280,-1.551829,-1.744227,-0.632590,-0.651405,1.038141,-0.802813,-0.025022,-0.039338,-1.210663,1.221830,0.900093,1.090036,-0.179561,0.121610,0.093745,0.019892,0.145864,-0.082998
-1.020878,-1.009579,-0.046388,-0.024398,-0.116760,-0.009434,-0.043323,-0.164941,0.442965,1.499174,1.486391,-1.471454,-1.683355,-0.617828,-0.636448,1.053852,-0.796301,-0.026600,-0.037521,-1.172604,1.202395,0.873566,1.080848,-0.171025,0.122645,0.094544,0.018474,0.144227,-0.079516
-0.960980,-0.951208,-0.046388,-0.022606,-0.110336,-0.017985,-0.043323,-0.167335,0.438028,1.430397,1.419996,-1.390850,-1.618920,-0.602402,-0.619922,1.057352,-0.786781,-0.028819,-0.036072,-1.132677,1.178139,0.858074,1.074587,-0.162189,0.120969,0.094544,0.018474,0.141409,-0.076389
-0.899629,-0.891258,-0.047042,-0.021020,-0.104294,-0.025651,-0.045145,-0.170255,0.432009,1.357933,1.350007,-1.309443,-1.549178,-0.583969,-0.600085,1.048136,-0.774216,-0.030703,-0.034710,-1.096431,1.152763,0.853750,1.070301,-0.152873,0.118674,0.096277,0.018194,0.137738,-0.073672
-0.837548,-0.830514,-0.047173,-0.019537,-0.098443,-0.032874,-0.046895,-0.173437,0.425448,1.283620,1.278219,-1.227630,-1.476779,-0.564032,-0.578590,1.032561,-0.760128,-0.033178,-0.033390,-1.062024,1.126826,0.855010,1.067903,-0.143315,0.116070,0.097878,0.018344,0.133640,-0.071159
-0.776127,-0.770284,-0.044454,-0.019537,-0.094548,-0.038387,-0.046895,-0.176412,0.418644,1.207204,1.204824,-1.154843,-1.400750,-0.540100,-0.555962,1.001736,-0.743326,-0.033178,-0.031297,-1.034555,1.102077,0.866067,1.067903,-0.129912,0.111650,0.101022,0.019796,0.128380,-0.067830
-0.715789,-0.711556,-0.041208,-0.019370,-0.090725,-0.043401,-0.047331,-0.179268,0.412154,1.131265,1.132602,-1.084061,-1.324882,-0.515856,-0.532536,0.969379,-0.725979,-0.034562,-0.029026,-1.010027,1.078855,0.878812,1.069960,-0.115458,0.106031,0.104237,0.021521,0.123450,-0.064431
-0.657618,-0.655831,-0.036907,-0.019370,-0.087044,-0.047417,-0.047331,-0.181885,0.406292,1.056281,1.062728,-1.017286,-1.249334,-0.490988,-0.507515,0.933960,-0.707542,-0.034562,-0.026400,-0.991378,1.058689,0.894932,1.073432,-0.098900,0.098011,0.107595,0.023797,0.119182,-0.060893
-0.602618,-0.602971,-0.032802,-0.017874,-0.082052,-0.051043,-0.047292,-0.184400,0.397907,0.981913,0.992345,-0.951533,-1.175374,-0.465242,-0.482027,0.900880,-0.688220,-0.035691,-0.023592,-0.978294,1.046567,0.911345,1.076659,-0.084939,0.089474,0.110155,0.026045,0.116488,-0.057946
-0.549200,-0.551539,-0.028794,-0.016024,-0.076404,-0.054475,-0.046809,-0.186863,0.388260,0.907848,0.921704,-0.886287,-1.102203,-0.439055,-0.456305,0.868967,-0.668456,-0.036196,-0.020692,-0.967990,1.038466,0.927906,1.079764,-0.072275,0.080679,0.112317,0.028280,0.114581,-0.055295
-0.500285,-0.505463,-0.023776,-0.013389,-0.069281,-0.055712,-0.046809,-0.188101,0.374064,0.833343,0.850701,-0.820386,-1.029234,-0.410676,-0.427528,0.834562,-0.645437,-0.036196,-0.018626,-0.949773,1.022067,0.944822,1.085449,-0.059443,0.068647,0.115052,0.030579,0.111783,-0.052837
-0.452569,-0.460340,-0.019084,-0.010649,-0.061989,-0.055988,-0.045888,-0.189607,0.359431,0.759717,0.779994,-0.755175,-0.957510,-0.381572,-0.398754,0.800155,-0.621469,-0.035852,-0.016553,-0.931875,1.005546,0.961988,1.092585,-0.046376,0.056191,0.118023,0.032909,0.108635,-0.050619
-0.407249,-0.417121,-0.015043,-0.007700,-0.054358,-0.055988,-0.045888,-0.189607,0.343924,0.687847,0.709882,-0.691345,-0.888274,-0.351019,-0.369985,0.765740,-0.595606,-0.035852,-0.014469,-0.914615,0.988780,0.979653,1.102625,-0.032839,0.042888,0.121467,0.035300,0.104785,-0.048883
-0.364532,-0.375551,-0.012057,-0.003601,-0.045365,-0.052289,-0.046085,-0.191271,0.327626,0.619046,0.641067,-0.630828,-0.822714,-0.323134,-0.341032,0.733614,-0.568891,-0.035238,-0.012849,-0.898806,0.971939,0.995239,1.114749,-0.019847,0.029912,0.124995,0.038209,0.099649,-0.047009
-0.323117,-0.334805,-0.009599,0.001074,-0.035692,-0.047563,-0.046766,-0.192749,0.310933,0.551778,0.572898,-0.571965,-0.758991,-0.296582,-0.311986,0.702632,-0.541748,-0.034910,-0.011462,-0.883721,0.955060,1.009785,1.127915,-0.007126,0.017101,0.128565,0.041377,0.093870,-0.045064
-0.283891,-0.295031,-0.006680,0.006446,-0.024502,-0.041031,-0.048616,-0.192749,0.292501,0.490032,0.507033,-0.514162,-0.695552,-0.272399,-0.282907,0.669942,-0.511789,-0.034910,-0.011462,-0.857684,0.924991,1.023438,1.143604,0.006349,0.003021,0.131349,0.044402,0.083852,-0.042018
-0.245499,-0.256007,-0.003137,0.011393,-0.013746,-0.035231,-0.050381,-0.192268,0.274195,0.430166,0.442787,-0.457638,-0.633602,-0.248761,-0.254968,0.637874,-0.482871,-0.033649,-0.011639,-0.831382,0.896300,1.037213,1.158910,0.018062,-0.010882,0.133786,0.047243,0.072848,-0.038923
-0.208768,-0.218481,0.001657,0.015490,-0.003857,-0.030893,-0.051976,-0.190599,0.256139,0.374050,0.381772,-0.403665,-0.574621,-0.226213,-0.229305,0.607044,-0.456032,-0.033649,-0.011639,-0.804548,0.870358,1.051232,1.173451,0.026253,-0.024434,0.133786,0.049718,0.059870,-0.035730
-0.173368,-0.182765,0.008029,0.018933,0.004580,-0.027923,-0.052492,-0.188200,0.240075,0.323044,0.326635,-0.352691,-0.518617,-0.205984,-0.206587,0.578230,-0.433154,-0.031666,-0.010117,-0.779458,0.851042,1.065199,1.184644,0.030222,-0.038286,0.134367,0.052638,0.046971,-0.032364
-0.138633,-0.147954,0.015191,0.022049,0.012291,-0.025637,-0.052477,-0.185435,0.225008,0.274593,0.274435,-0.303215,-0.464099,-0.186915,-0.185340,0.550423,-0.412256,-0.030519,-0.008800,-0.755240,0.835038,1.079141,1.194164,0.032081,-0.052288,0.135049,0.055780,0.034112,-0.028911
-0.107102,-0.117818,0.023471,0.025736,0.018380,-0.023962,-0.048561,-0.183004,0.212606,0.233642,0.232247,-0.256610,-0.412805,-0.173593,-0.168958,0.524378,-0.395936,-0.030519,-0.008800,-0.732247,0.822469,1.092993,1.200740,0.033466,-0.066147,0.135049,0.058284,0.024186,-0.025605
-0.076947,-0.089181,0.031172,0.029399,0.024069,-0.022154,-0.043786,-0.180482,0.201153,0.195316,0.192876,-0.210789,-0.363023,-0.161426,-0.153919,0.499013,-0.379821,-0.031483,-0.007881,-0.710281,0.809681,1.106263,1.207976,0.034953,-0.078561,0.135566,0.060898,0.015534,-0.022457
-0.049537,-0.063534,0.037712,0.033012,0.028958,-0.020083,-0.037293,-0.177775,0.191599,0.162232,0.159133,-0.166526,-0.316259,-0.151565,-0.141566,0.475005,-0.364115,-0.033125,-0.007881,-0.690364,0.796456,1.118372,1.216528,0.036643,-0.088084,0.135566,0.060898,0.009428,-0.019624
-0.023650,-0.039067,0.043970,0.035684,0.032851,-0.018019,-0.032017,-0.175763,0.185934,0.134961,0.130625,-0.125744,-0.273531,-0.144073,-0.131444,0.451834,-0.348230,-0.034008,-0.007217,-0.671493,0.782792,1.130264,1.225871,0.038001,-0.095104,0.135778,0.062847,0.005744,-0.017416
0.001474,-0.015189,0.050085,0.038757,0.036247,-0.015958,-0.027349,-0.174098,0.182212,0.110596,0.104734,-0.086701,-0.232819,-0.137764,-0.122438,0.429081,-0.332257,-0.033871,-0.006734,-0.653145,0.768910,1.142047,1.235608,0.039831,-0.100872,0.134999,0.064355,0.002507,-0.015520
0.032851,0.015276,0.054576,0.038757,0.039800,-0.013384,-0.025698,-0.171930,0.179961,0.080023,0.072641,-0.048814,-0.192916,-0.128568,-0.110449,0.404713,-0.315888,-0.033871,-0.006734,-0.635377,0.754416,1.155905,1.246695,0.039831,-0.107525,0.134999,0.067147,0.002507,-0.013109
0.062494,0.044637,0.058368,0.039628,0.042946,-0.010670,-0.023758,-0.169369,0.177458,0.053346,0.043368,-0.012282,-0.153477,-0.121251,-0.099660,0.379761,-0.299078,-0.033399,-0.005823,-0.616477,0.737355,1.170557,1.257882,0.041562,-0.113778,0.134368,0.070224,0.001172,-0.010398
0.088668,0.071788,0.060763,0.039628,0.045275,-0.007678,-0.023758,-0.166021,0.174451,0.034461,0.019736,0.021539,-0.114968,-0.117691,-0.091274,0.353640,-0.281389,-0.033399,-0.004395,-0.595316,0.715164,1.186796,1.269271,0.043647,-0.119231,0.134368,0.073871,0.001172,-0.007087
0.106549,0.090615,0.063167,0.039879,0.046717,-0.004061,-0.023261,-0.162414,0.169387,0.027834,0.009283,0.051536,-0.076721,-0.119956,-0.089195,0.327010,-0.264569,-0.032849,-0.003116,-0.569139,0.688091,1.202956,1.278643,0.048826,-0.123833,0.135649,0.078431,-0.000873,-0.003410
0.120284,0.105279,0.065575,0.039681,0.046430,-0.000132,-0.023603,-0.158678,0.163295,0.027502,0.005420,0.079619,-0.038606,-0.125132,-0.089912,0.300125,-0.248185,-0.032676,-0.002313,-0.540455,0.658580,1.219076,1.287007,0.055552,-0.128008,0.137607,0.083448,-0.003085,0.000451
0.127175,0.111232,0.071628,0.038116,0.046430,0.002683,-0.025536,-0.154422,0.156305,0.032967,0.012736,0.101846,-0.005183,-0.132231,-0.097801,0.275638,-0.234931,-0.032676,0.000511,-0.504705,0.636179,1.233238,1.292098,0.065137,-0.131140,0.140099,0.089645,-0.006506,0.005299
0.132917,0.115882,0.077711,0.036318,0.044937,0.005180,-0.027805,-0.150105,0.149594,0.038356,0.020441,0.122491,0.025677,-0.139019,-0.105807,0.252713,-0.222356,-0.032266,0.003024,-0.470836,0.616922,1.245683,1.297055,0.072263,-0.134022,0.141774,0.095751,-0.009277,0.010590
0.136361,0.117924,0.083855,0.034056,0.043316,0.007041,-0.030749,-0.145665,0.143440,0.043597,0.028926,0.139970,0.051411,-0.145188,-0.114044,0.232916,-0.211138,-0.032266,0.004918,-0.440729,0.603956,1.254694,1.301741,0.074473,-0.136403,0.141774,0.101675,-0.010747,0.016767
0.138736,0.119075,0.089108,0.031967,0.041825,0.008688,-0.033435,-0.141389,0.137865,0.047615,0.035891,0.153785,0.072166,-0.149785,-0.120921,0.215864,-0.200878,-0.031297,0.006762,-0.416492,0.593778,1.263693,1.306376,0.069699,-0.138039,0.139670,0.105981,-0.009396,0.022678
0.140576,0.120418,0.094839,0.029966,0.040062,0.011126,-0.035994,-0.137196,0.132579,0.051023,0.042096,0.165768,0.090430,-0.153595,-0.127117,0.200186,-0.191098,-0.030592,0.009018,-0.395192,0.584993,1.272685,1.310985,0.061435,-0.139303,0.136491,0.110308,-0.006634,0.028455
0.142252,0.120418,0.094839,0.028297,0.040062,0.011126,-0.037615,-0.134413,0.129652,0.052725,0.045132,0.170972,0.101555,-0.155890,-0.131412,0.187910,-0.183069,-0.029234,0.009018,-0.387533,0.579409,1.282884,1.315467,0.049288,-0.138012,0.131702,0.110308,-0.001279,0.032175
0.143826,0.122083,0.094610,0.026336,0.038373,0.012022,-0.038695,-0.133450,0.127044,0.054181,0.046161,0.173982,0.110504,-0.158133,-0.134912,0.177042,-0.175574,-0.027653,0.009958,-0.383875,0.573928,1.293387,1.320453,0.038326,-0.136281,0.127438,0.110775,0.004118,0.035243
0.145197,0.124459,0.091148,0.026336,0.038373,0.012022,-0.038695,-0.133450,0.127044,0.054181,0.046161,0.173982,0.115100,-0.158133,-0.136823,0.168992,-0.169148,-0.027653,0.011470,-0.388221,0.568651,1.304495,1.326449,0.029734,-0.133672,0.124225,0.110775,0.009595,0.037008
0.146127,0.127028,0.087935,0.025488,0.036844,0.012324,-0.038193,-0.136911,0.126895,0.054503,0.042401,0.169950,0.116128,-0.158502,-0.136694,0.163286,-0.164154,-0.026588,0.013075,-0.395752,0.566892,1.315144,1.332172,0.024699,-0.129353,0.122485,0.109678,0.013877,0.037597
0.147100,0.129695,0.083912,0.025278,0.035655,0.012665,-0.036846,-0.140763,0.127403,0.054219,0.038257,0.164591,0.115624,-0.158103,-0.135127,0.158750,-0.159876,-0.026199,0.015282,-0.404874,0.566216,1.325562,1.337760,0.020714,-0.124180,0.122171,0.108453,0.017561,0.036799
0.147100,0.132279,0.083912,0.025278,0.035655,0.012665,-0.036846,-0.144229,0.128694,0.054219,0.034778,0.157980,0.113255,-0.158103,-0.135127,0.157412,-0.158425,-0.026199,0.015282,-0.409647,0.568226,1.331883,1.341838,0.020714,-0.118579,0.122171,0.108453,0.019910,0.036799
0.147621,0.134888,0.082447,0.024732,0.034749,0.012406,-0.037174,-0.147112,0.130149,0.054162,0.031738,0.150771,0.109817,-0.158049,-0.134328,0.157103,-0.158384,-0.026211,0.016661,-0.414556,0.571417,1.337642,1.345599,0.019029,-0.113806,0.122525,0.107597,0.022219,0.035470
0.147621,0.134888,0.082447,0.024732,0.034749,0.012406,-0.038460,-0.148826,0.131930,0.054162,0.031738,0.142368,0.104242,-0.158049,-0.134328,0.158852,-0.158384,-0.026211,0.016661,-0.419740,0.576969,1.342276,1.348726,0.016163,-0.110692,0.122525,0.107597,0.024449,0.035470
0.146916,0.135773,0.080791,0.023862,0.033844,0.011245,-0.039767,-0.150255,0.133621,0.054389,0.031060,0.131749,0.097036,-0.157983,-0.135343,0.161886,-0.161339,-0.026440,0.018327,-0.426133,0.581197,1.347339,1.351629,0.012240,-0.109044,0.121518,0.107231,0.026814,0.034919
0.146191,0.134741,0.079105,0.022925,0.032625,0.009555,-0.041672,-0.151112,0.135265,0.054388,0.031102,0.120021,0.089017,-0.157617,-0.135684,0.165564,-0.164382,-0.026976,0.019762,-0.433131,0.584763,1.352618,1.354420,0.007787,-0.108435,0.120789,0.107080,0.030105,0.035035
0.144282,0.134741,0.074794,0.022925,0.032625,0.009555,-0.041672,-0.153675,0.137225,0.054388,0.029435,0.102768,0.075719,-0.156310,-0.135684,0.171186,-0.169275,-0.026976,0.019762,-0.447996,0.588443,1.360974,1.359808,0.004801,-0.108435,0.120789,0.107080,0.030105,0.035035
0.142256,0.133359,0.070178,0.022518,0.031043,0.007963,-0.041836,-0.157142,0.139763,0.053153,0.026830,0.082764,0.059652,-0.154399,-0.133710,0.177652,-0.174853,-0.027951,0.021155,-0.465472,0.593596,1.369823,1.365505,0.002811,-0.107355,0.121467,0.107523,0.030024,0.035638
0.139994,0.133359,0.064954,0.022518,0.031043,0.007963,-0.040565,-0.162416,0.143459,0.050641,0.022349,0.057260,0.038048,-0.151283,-0.129252,0.185805,-0.181798,-0.029307,0.021155,-0.488170,0.601695,1.379661,1.371816,0.002811,-0.105392,0.123095,0.107523,0.027200,0.035638
0.136961,0.131128,0.058803,0.022023,0.028618,0.006179,-0.035943,-0.169506,0.148556,0.044999,0.015715,0.024128,0.008305,-0.145406,-0.123395,0.197127,-0.191585,-0.031012,0.022461,-0.517546,0.615005,1.387988,1.378099,0.003114,-0.103977,0.125557,0.108635,0.020985,0.036995
0.133542,0.128818,0.052190,0.020771,0.026327,0.004535,-0.029645,-0.177506,0.154352,0.037792,0.008007,-0.012819,-0.025508,-0.138147,-0.116839,0.210034,-0.202794,-0.033460,0.022965,-0.550262,0.630919,1.394994,1.384369,0.004537,-0.103801,0.128436,0.109155,0.013075,0.038481
0.127684,0.123774,0.048213,0.020771,0.023495,0.003098,-0.023687,-0.186080,0.159230,0.027455,-0.000259,-0.061022,-0.071050,-0.126673,-0.109205,0.229657,-0.219244,-0.033460,0.022965,-0.575327,0.652385,1.394994,1.389698,0.006577,-0.103801,0.130707,0.109155,0.003568,0.040457
0.117550,0.113903,0.044765,0.019334,0.020220,0.001737,-0.019079,-0.193309,0.163729,0.024066,-0.000298,-0.113574,-0.120619,-0.117908,-0.104717,0.251694,-0.237185,-0.034395,0.022595,-0.597652,0.672705,1.391692,1.394211,0.008787,-0.105091,0.132876,0.108486,-0.005553,0.041775
0.098865,0.094379,0.042379,0.017865,0.016058,0.000527,-0.017168,-0.197846,0.167469,0.034570,0.016113,-0.174816,-0.178237,-0.114563,-0.106521,0.278559,-0.258102,-0.034395,0.022595,-0.614496,0.690733,1.383481,1.394211,0.011334,-0.105091,0.134840,0.107169,-0.013901,0.041775
0.073022,0.067199,0.040258,0.015753,0.010619,-0.000813,-0.016532,-0.199359,0.170696,0.060441,0.048374,-0.241230,-0.239700,-0.119582,-0.116738,0.309070,-0.282964,-0.034169,0.021097,-0.628427,0.702557,1.370964,1.389218,0.014211,-0.106656,0.136360,0.105511,-0.015867,0.038712
0.043600,0.036192,0.038268,0.013320,0.004540,-0.001748,-0.018129,-0.199168,0.173667,0.093995,0.088560,-0.310230,-0.303086,-0.128783,-0.131161,0.341404,-0.309799,-0.033193,0.019774,-0.640903,0.711280,1.356294,1.380289,0.017253,-0.107517,0.137226,0.103681,-0.014643,0.034588
0.016056,0.005965,0.036311,0.010327,-0.001762,-0.003142,-0.018129,-0.197495,0.177118,0.128463,0.131382,-0.384411,-0.372510,-0.141427,-0.147759,0.378044,-0.341963,-0.033193,0.017496,-0.656430,0.721512,1.337960,1.364662,0.019313,-0.108906,0.135423,0.100653,-0.005047,0.028200
-0.012203,-0.024558,0.033357,0.007205,-0.008050,-0.004468,-0.019533,-0.195716,0.180539,0.163892,0.174212,-0.459769,-0.444089,-0.154040,-0.164180,0.415426,-0.374303,-0.031905,0.015469,-0.674234,0.731735,1.320320,1.348180,0.019910,-0.110309,0.132735,0.097628,0.005697,0.021616
-0.041895,-0.055674,0.028406,0.003828,-0.014309,-0.005659,-0.021040,-0.193723,0.183897,0.201246,0.217062,-0.537484,-0.519981,-0.166591,-0.180249,0.454294,-0.406998,-0.031905,0.013941,-0.696592,0.741939,1.304071,1.329992,0.017583,-0.111740,0.128276,0.094608,0.018738,0.014637
-0.075337,-0.088594,0.022407,0.000718,-0.020415,-0.006552,-0.022777,-0.192176,0.186924,0.244630,0.262468,-0.615097,-0.597150,-0.181872,-0.196651,0.493035,-0.438670,-0.030152,0.012639,-0.723670,0.755920,1.287475,1.312427,0.013600,-0.113083,0.123698,0.092054,0.032443,0.007437
-0.110656,-0.122417,0.015884,-0.002259,-0.026444,-0.006662,-0.025536,-0.192194,0.189784,0.291031,0.309155,-0.692664,-0.674964,-0.198519,-0.213221,0.531715,-0.469831,-0.028648,0.011310,-0.753111,0.771790,1.270704,1.295172,0.008788,-0.113938,0.119060,0.089732,0.046482,0.000126
-0.152545,-0.160720,0.008516,-0.004489,-0.033346,-0.006662,-0.025536,-0.192194,0.194265,0.348307,0.363845,-0.769397,-0.754024,-0.220796,-0.233925,0.569721,-0.499638,-0.028648,0.011310,-0.781712,0.788932,1.250968,1.277805,0.004149,-0.113938,0.115268,0.087664,0.058235,-0.006039
-0.194568,-0.199129,0.001796,-0.006664,-0.040874,-0.005277,-0.025420,-0.193781,0.200257,0.407697,0.420588,-0.845955,-0.832803,-0.244155,-0.256901,0.607728,-0.529687,-0.027993,0.010773,-0.811156,0.807060,1.230449,1.260247,-0.000501,-0.113006,0.111425,0.085524,0.068785,-0.011679
-0.236862,-0.237753,-0.003626,-0.008729,-0.049654,-0.005277,-0.025420,-0.195836,0.209270,0.471320,0.481442,-0.922170,-0.911021,-0.269680,-0.284425,0.645740,-0.560224,-0.027993,0.010773,-0.842285,0.827160,1.208361,1.242305,-0.005171,-0.111540,0.107479,0.083235,0.076927,-0.016268
-0.278785,-0.277823,-0.006724,-0.011010,-0.059447,-0.004277,-0.022491,-0.197106,0.220720,0.535452,0.545417,-0.998641,-0.988937,-0.296773,-0.313778,0.684622,-0.592768,-0.027996,0.012166,-0.877738,0.854229,1.185399,1.223699,-0.010605,-0.109603,0.103487,0.080727,0.083610,-0.021467
-0.320525,-0.318619,-0.008659,-0.013399,-0.069746,-0.005067,-0.019631,-0.197690,0.233388,0.599843,0.610954,-1.075244,-1.066706,-0.324651,-0.344048,0.723940,-0.626318,-0.028817,0.013621,-0.915355,0.884783,1.161999,1.204760,-0.016420,-0.107431,0.099471,0.078107,0.089565,-0.026970
-0.365520,-0.364926,-0.008659,-0.016147,-0.080956,-0.005067,-0.015081,-0.195582,0.246499,0.665916,0.680775,-1.150114,-1.142743,-0.354097,-0.375193,0.762174,-0.660423,-0.028817,0.015036,-0.954412,0.917687,1.137117,1.184287,-0.024187,-0.102582,0.095356,0.075012,0.095598,-0.033316
-0.412026,-0.412614,-0.007017,-0.018672,-0.092286,-0.006313,-0.010011,-0.192808,0.259667,0.733364,0.751410,-1.224088,-1.217626,-0.383520,-0.406685,0.799926,-0.694352,-0.030241,0.016519,-0.992938,0.949861,1.111827,1.163678,-0.032770,-0.096975,0.091156,0.071825,0.101711,-0.039298
-0.461557,-0.463068,-0.007017,-0.020749,-0.103857,-0.007542,-0.003902,-0.188703,0.272946,0.803566,0.823676,-1.296278,-1.290207,-0.412902,-0.438875,0.836716,-0.727931,-0.032586,0.018139,-1.030403,0.980581,1.085716,1.142794,-0.042987,-0.089855,0.086788,0.068454,0.107986,-0.044554
-0.508418,-0.510245,-0.005807,-0.022361,-0.113860,-0.007952,0.000755,-0.184806,0.284624,0.869307,0.890349,-1.362237,-1.356339,-0.439455,-0.467050,0.869503,-0.758698,-0.034278,0.018742,-1.066095,1.012023,1.060915,1.123052,-0.051666,-0.083916,0.083249,0.065724,0.112945,-0.048924
-0.553944,-0.555783,-0.006193,-0.023741,-0.123078,-0.007811,0.005343,-0.181014,0.295501,0.932819,0.954225,-1.425082,-1.419248,-0.464593,-0.493219,0.900289,-0.788061,-0.035643,0.018805,-1.100901,1.043826,1.036768,1.103881,-0.059575,-0.078568,0.080123,0.063316,0.117246,-0.052852
-0.608322,-0.608873,-0.006193,-0.025557,-0.130426,-0.005532,0.005343,-0.176536,0.305005,1.004610,1.023989,-1.488580,-1.482869,-0.490192,-0.519507,0.931493,-0.819107,-0.033602,0.016601,-1.141087,1.083706,1.013198,1.084037,-0.066025,-0.074699,0.077707,0.061416,0.120702,-0.056679
-0.666238,-0.665138,-0.007473,-0.027317,-0.137082,-0.002348,0.005554,-0.171634,0.313130,1.078998,1.095726,-1.551607,-1.546579,-0.515876,-0.545978,0.962005,-0.849834,-0.031050,0.014125,-1.182353,1.124554,0.990488,1.064110,-0.072184,-0.071005,0.075421,0.059540,0.123981,-0.060365
-0.731240,-0.727760,-0.009144,-0.028963,-0.142355,0.002647,0.005554,-0.165886,0.318498,1.158591,1.171418,-1.613699,-1.610475,-0.541731,-0.572814,0.991138,-0.879929,-0.027475,0.011108,-1.225785,1.167344,0.969497,1.044012,-0.077761,-0.067659,0.073397,0.057710,0.126905,-0.063769
-0.799910,-0.794512,-0.010687,-0.030461,-0.147532,0.008644,0.006042,-0.159200,0.323290,1.240520,1.249663,-1.674291,-1.674167,-0.566547,-0.598787,1.016462,-0.906607,-0.023811,0.008042,-1.267264,1.206470,0.951499,1.025256,-0.082701,-0.063911,0.071560,0.055877,0.129639,-0.067035
-0.870415,-0.863329,-0.011673,-0.032216,-0.152662,0.015144,0.006974,-0.152045,0.327794,1.323617,1.329184,-1.734134,-1.737758,-0.590844,-0.624329,1.039881,-0.931576,-0.020103,0.004951,-1.307767,1.243765,0.934997,1.007172,-0.087322,-0.059963,0.069816,0.054042,0.132278,-0.070231
-0.944454,-0.935991,-0.013230,-0.032216,-0.157410,0.024045,0.008675,-0.145177,0.332742,1.408013,1.410513,-1.790536,-1.800232,-0.612228,-0.647011,1.057818,-0.950318,-0.014856,0.002115,-1.345056,1.274675,0.925895,0.993040,-0.091721,-0.055128,0.068040,0.052396,0.135171,-0.073181
-1.019626,-1.009666,-0.014786,-0.031870,-0.161965,0.032838,0.010484,-0.138728,0.338172,1.492314,1.491474,-1.844920,-1.861935,-0.632624,-0.668557,1.073527,-0.967092,-0.009552,-0.000856,-1.375933,1.304489,0.919280,0.980636,-0.096090,-0.050048,0.066259,0.050798,0.138156,-0.075973
-1.097062,-1.085366,-0.016337,-0.029839,-0.166132,0.041412,0.012509,-0.133116,0.344568,1.576423,1.571701,-1.895266,-1.922096,-0.651046,-0.687832,1.084782,-0.979931,-0.004131,-0.004099,-1.393983,1.332108,0.917634,0.971691,-0.100400,-0.044481,0.064469,0.049298,0.141321,-0.078452
-1.174411,-1.161683,-0.017938,-0.027439,-0.170983,0.048740,0.015353,-0.127075,0.352857,1.659405,1.651678,-1.937924,-1.979205,-0.667014,-0.703694,1.095474,-0.988554,0.000500,-0.007434,-1.400000,1.358051,0.916348,0.966642,-0.104412,-0.038905,0.062741,0.047826,0.144228,-0.080753
-1.251712,-1.238307,-0.019564,-0.024855,-0.176176,0.055445,0.018605,-0.120821,0.362093,1.741821,1.731530,-1.976735,-2.034787,-0.681754,-0.717848,1.105884,-0.995115,0.004737,-0.010817,-1.400000,1.383153,0.916157,0.963541,-0.108274,-0.033325,0.061043,0.046369,0.147004,-0.082965
-1.327040,-1.312071,-0.023043,-0.022295,-0.181430,0.058844,0.020134,-0.115763,0.376049,1.822374,1.809456,-2.012202,-2.079611,-0.692475,-0.727376,1.115885,-0.995115,0.008189,-0.014714,-1.400000,1.393261,0.916157,0.965306,-0.112515,-0.027677,0.059246,0.044912,0.149696,-0.084867
-1.400614,-1.383932,-0.026989,-0.019948,-0.186533,0.060569,0.021153,-0.110981,0.391158,1.902088,1.886401,-2.045342,-2.119181,-0.701527,-0.735477,1.124910,-0.994670,0.011435,-0.019381,-1.400000,1.400000,0.917457,0.967088,-0.117103,-0.021907,0.057476,0.043440,0.152194,-0.087029
-1.470679,-1.451985,-0.031869,-0.018029,-0.191335,0.058945,0.021153,-0.106754,0.408573,1.980123,1.961381,-2.073828,-2.148245,-0.707240,-0.740723,1.131982,-0.993203,0.014270,-0.025585,-1.400000,1.400000,0.917457,0.968907,-0.122387,-0.015895,0.055760,0.041936,0.154304,-0.087029
-1.524420,-1.512090,-0.035420,-0.017389,-0.196138,0.055644,0.023165,-0.099349,0.429330,2.049889,2.033017,-2.095874,-2.169693,-0.712887,-0.743266,1.136586,-0.991687,0.017631,-0.032440,-1.400000,1.400000,0.917704,0.970221,-0.128203,-0.010110,0.054333,0.040382,0.155699,-0.087923
-1.569999,-1.569109,-0.038305,-0.016202,-0.200941,0.051272,0.026433,-0.090357,0.451757,2.115519,2.102978,-2.114698,-2.187332,-0.718503,-0.744061,1.139957,-0.990147,0.021255,-0.039621,-1.400000,1.400000,0.917198,0.970929,-0.134285,-0.004437,0.052060,0.038802,0.156551,-0.088326
-1.569999,-1.569109,-0.039872,-0.016202,-0.203260,0.051272,0.029562,-0.085337,0.488541,2.153585,2.139693,-2.124593,-2.198122,-0.733365,-0.754736,1.141708,-0.988597,0.025629,-0.041978,-1.400000,1.400000,0.915268,0.970929,-0.139637,0.000151,0.052060,0.037145,0.156551,-0.088326
-1.570000,-1.570000,-0.040061,-0.014068,-0.204300,0.053389,0.031045,-0.081991,0.514450,2.191396,2.175205,-2.125542,-2.200681,-0.749192,-0.766981,1.141526,-0.984651,0.029753,-0.044008,-1.400000,1.400000,0.912521,0.969756,-0.145098,0.005403,0.050564,0.035274,0.156887,-0.088480
-1.570000,-1.570000,-0.037493,-0.009930,-0.202785,0.060441,0.029238,-0.081991,0.518612,2.228696,2.208313,-2.108599,-2.186777,-0.766949,-0.782368,1.137477,-0.975915,0.033376,-0.045385,-1.400000,1.400000,0.908137,0.969756,-0.150776,0.011983,0.049047,0.032974,0.156887,-0.088480
-1.570000,-1.570000,-0.034555,-0.005527,-0.200820,0.065333,0.025253,-0.084013,0.520000,2.264082,2.239251,-2.086113,-2.164452,-0.781576,-0.792957,1.128276,-0.964521,0.035441,-0.047021,-1.400000,1.400000,0.905505,0.972339,-0.156653,0.019367,0.047694,0.030719,0.157063,-0.087744
-1.570000,-1.570000,-0.031145,-0.000991,-0.198983,0.069145,0.020180,-0.086735,0.520000,2.298510,2.269104,-2.060857,-2.137916,-0.794637,-0.801146,1.116498,-0.951799,0.035939,-0.048788,-1.400000,1.400000,0.903751,0.977388,-0.162628,0.027152,0.045887,0.028486,0.157093,-0.087404
-1.570000,-1.570000,-0.031145,-0.000991,-0.198983,0.070404,0.014901,-0.088275,0.520000,2.328845,2.296969,-2.031882,-2.106456,-0.802740,-0.805593,1.099308,-0.936587,0.035939,-0.051006,-1.400000,1.400000,0.908682,0.986658,-0.168845,0.034349,0.045887,0.026669,0.157093,-0.087404
-1.570000,-1.570000,-0.031577,-0.001922,-0.200124,0.071851,0.010377,-0.088393,0.520000,2.358729,2.324844,-2.001065,-2.073292,-0.809520,-0.809995,1.079146,-0.919135,0.034339,-0.053159,-1.400000,1.400000,0.915845,0.997212,-0.175517,0.042124,0.045351,0.024843,0.156021,-0.087380
-1.570000,-1.570000,-0.031577,-0.004881,-0.200124,0.073674,0.007360,-0.085668,0.520000,2.387711,2.352738,-1.966568,-2.036724,-0.813653,-0.814305,1.053038,-0.897200,0.031904,-0.055184,-1.400000,1.400000,0.927468,1.010335,-0.183100,0.051057,0.045351,0.023001,0.156021,-0.087380
-1.570000,-1.570000,-0.032743,-0.007278,-0.201774,0.075925,0.004736,-0.082379,0.520000,2.414521,2.379414,-1.930686,-1.998938,-0.815832,-0.816205,1.021745,-0.872417,0.029148,-0.056803,-1.400000,1.400000,0.943244,1.026764,-0.191129,0.061100,0.046508,0.021103,0.153580,-0.087559
-1.570000,-1.570000,-0.033188,-0.009394,-0.202636,0.078392,0.002308,-0.078808,0.520000,2.440244,2.405483,-1.894111,-1.960543,-0.816633,-0.816667,0.987858,-0.846210,0.026231,-0.058967,-1.400000,1.400000,0.961095,1.044848,-0.199379,0.071697,0.048055,0.019177,0.151301,-0.088229
-1.570000,-1.570000,-0.035848,-0.012389,-0.205327,0.082691,-0.001935,-0.076561,0.520000,2.462666,2.428071,-1.854864,-1.920789,-0.814072,-0.811651,0.953895,-0.820878,0.022715,-0.058967,-1.400000,1.400000,0.979417,1.061485,-0.204364,0.079548,0.048055,0.017667,0.149492,-0.088229
-1.570000,-1.570000,-0.038497,-0.015113,-0.207971,0.086624,-0.005839,-0.073677,0.520000,2.483913,2.449541,-1.816773,-1.880855,-0.810323,-0.805825,0.920584,-0.796046,0.018348,-0.060158,-1.400000,1.400000,0.996849,1.077145,-0.208349,0.086699,0.049276,0.015741,0.147621,-0.088877
-1.570000,-1.570000,-0.041127,-0.017295,-0.210520,0.089823,-0.009065,-0.069521,0.520000,2.502810,2.468774,-1.780995,-1.840567,-0.804195,-0.798378,0.888579,-0.772214,0.012276,-0.060158,-1.400000,1.400000,1.012502,1.090847,-0.208349,0.092446,0.050552,0.015741,0.145624,-0.088877
-1.570000,-1.570000,-0.042989,-0.018940,-0.212339,0.088390,-0.012638,-0.065648,0.520000,2.518969,2.485447,-1.749633,-1.804036,-0.797187,-0.790675,0.860096,-0.751528,0.005573,-0.060931,-1.400000,1.400000,1.026883,1.103279,-0.208569,0.097432,0.051815,0.014199,0.143385,-0.089352
-1.570000,-1.570000,-0.044436,-0.020316,-0.213958,0.084639,-0.016385,-0.061917,0.520000,2.533758,2.500841,-1.720479,-1.769382,-0.789738,-0.782844,0.833373,-0.732416,-0.001444,-0.061262,-1.400000,1.400000,1.040629,1.115075,-0.208126,0.102037,0.053872,0.013096,0.141025,-0.089518
-1.570000,-1.570000,-0.044436,-0.022597,-0.213958,0.080219,-0.022766,-0.060178,0.520000,2.545279,2.512186,-1.695354,-1.740888,-0.782658,-0.775226,0.810687,-0.716007,-0.008368,-0.061262,-1.400000,1.400000,1.053825,1.125735,-0.208126,0.105729,0.053872,0.013096,0.139311,-0.089518
-1.570000,-1.570000,-0.044372,-0.025051,-0.213255,0.076618,-0.029621,-0.059485,0.520000,2.555982,2.522327,-1.672425,-1.714834,-0.775885,-0.768049,0.788647,-0.700052,-0.015648,-0.062611,-1.400000,1.400000,1.067200,1.136656,-0.207970,0.109281,0.055407,0.012190,0.137676,-0.089505
-1.570000,-1.570000,-0.042799,-0.027852,-0.213255,0.074654,-0.037423,-0.059485,0.520000,2.565051,2.530061,-1.653889,-1.693663,-0.769723,-0.761751,0.767904,-0.685005,-0.023639,-0.062611,-1.400000,1.400000,1.080932,1.148097,-0.207970,0.112555,0.055407,0.012190,0.136197,-0.089505
-1.570000,-1.570000,-0.040941,-0.030306,-0.211508,0.074735,-0.043933,-0.061238,0.520000,2.571094,2.535039,-1.641403,-1.679411,-0.765702,-0.757566,0.751633,-0.673224,-0.030723,-0.064501,-1.400000,1.400000,1.091906,1.157578,-0.208383,0.115257,0.056705,0.011439,0.134878,-0.089524
-1.570000,-1.570000,-0.038940,-0.033539,-0.210632,0.075471,-0.049797,-0.063169,0.520000,2.575624,2.538248,-1.631943,-1.668619,-0.763307,-0.754438,0.737598,-0.663076,-0.037355,-0.066268,-1.400000,1.400000,1.101500,1.166080,-0.207995,0.117673,0.057766,0.010850,0.133529,-0.089717
-1.570000,-1.570000,-0.036344,-0.033539,-0.209405,0.077503,-0.054257,-0.066673,0.520000,2.575624,2.538248,-1.629421,-1.665821,-0.763307,-0.754438,0.727464,-0.656016,-0.042219,-0.068617,-1.400000,1.400000,1.109717,1.173961,-0.207995,0.119680,0.057766,0.010850,0.133529,-0.089717
-1.570000,-1.570000,-0.033776,-0.034195,-0.208376,0.078540,-0.057710,-0.070541,0.520000,2.574390,2.536114,-1.630013,-1.666303,-0.765532,-0.755833,0.718695,-0.649828,-0.046352,-0.071244,-1.400000,1.400000,1.118104,1.181759,-0.207302,0.121518,0.058693,0.010586,0.132681,-0.090569
-1.570000,-1.570000,-0.031267,-0.034195,-0.208376,0.078540,-0.059149,-0.075137,0.520000,2.568925,2.530888,-1.636832,-1.673344,-0.770537,-0.759988,0.712658,-0.645384,-0.049019,-0.074429,-1.400000,1.400000,1.126834,1.189389,-0.207302,0.123013,0.058693,0.010586,0.132681,-0.090569
-1.570000,-1.570000,-0.029313,-0.032611,-0.209057,0.075977,-0.058143,-0.079964,0.520000,2.559785,2.522262,-1.649166,-1.686667,-0.777079,-0.766878,0.709098,-0.642680,-0.049512,-0.077870,-1.400000,1.400000,1.135841,1.196484,-0.206830,0.124415,0.059566,0.010181,0.132307,-0.091441
-1.570000,-1.570000,-0.027266,-0.030679,-0.209949,0.072610,-0.055914,-0.084906,0.520000,2.548807,2.511936,-1.664261,-1.703132,-0.784389,-0.775138,0.706778,-0.640845,-0.049116,-0.081439,-1.400000,1.400000,1.144987,1.203310,-0.207025,0.126668,0.060406,0.009674,0.132508,-0.092698
-1.570000,-1.570000,-0.027266,-0.026787,-0.209949,0.069756,-0.051747,-0.089850,0.520000,2.533159,2.497470,-1.684493,-1.726645,-0.792378,-0.785100,0.708390,-0.640845,-0.045319,-0.084555,-1.400000,1.400000,1.154640,1.208595,-0.207025,0.126668,0.060406,0.009674,0.132508,-0.092698
-1.570000,-1.570000,-0.027328,-0.022928,-0.209255,0.067034,-0.047277,-0.094539,0.520000,2.516193,2.481894,-1.705772,-1.751542,-0.800407,-0.794803,0.711146,-0.641023,-0.041000,-0.087260,-1.400000,1.400000,1.164134,1.213404,-0.207820,0.128350,0.061026,0.009063,0.133344,-0.094282
-1.570000,-1.570000,-0.028628,-0.019136,-0.207685,0.064577,-0.042198,-0.098718,0.520000,2.496593,2.464096,-1.729147,-1.779204,-0.808514,-0.803985,0.716188,-0.642293,-0.035634,-0.089142,-1.400000,1.400000,1.173310,1.217262,-0.207820,0.128350,0.061026,0.009063,0.133344,-0.094282
-1.570000,-1.570000,-0.030095,-0.016024,-0.204765,0.061953,-0.037910,-0.102799,0.520000,2.475089,2.443803,-1.753489,-1.807972,-0.815740,-0.811985,0.723201,-0.644571,-0.030550,-0.089769,-1.400000,1.400000,1.181482,1.220073,-0.208459,0.129678,0.061249,0.008389,0.134828,-0.095883
-1.570000,-1.570000,-0.031644,-0.013252,-0.201171,0.059006,-0.034017,-0.106831,0.520000,2.452632,2.422261,-1.778317,-1.837296,-0.822525,-0.819395,0.731201,-0.647353,-0.025607,-0.089357,-1.400000,1.400000,1.189154,1.223230,-0.208639,0.130213,0.061372,0.007612,0.135728,-0.097025
-1.570000,-1.570000,-0.034045,-0.013252,-0.196105,0.059006,-0.031815,-0.109449,0.520000,2.428841,2.399057,-1.801757,-1.866446,-0.826131,-0.823194,0.741201,-0.651864,-0.022486,-0.088125,-1.400000,1.400000,1.194184,1.223230,-0.208639,0.130213,0.061372,0.007612,0.136964,-0.098428
-1.570000,-1.570000,-0.036581,-0.013490,-0.191321,0.058980,-0.029689,-0.111880,0.520000,2.404691,2.375746,-1.824238,-1.894511,-0.828535,-0.825726,0.751435,-0.656575,-0.019482,-0.086733,-1.400000,1.400000,1.198263,1.224100,-0.208708,0.130206,0.061459,0.006854,0.138196,-0.099797
-1.570000,-1.570000,-0.039389,-0.016013,-0.187100,0.058980,-0.027717,-0.111880,0.520000,2.379825,2.352221,-1.844802,-1.920407,-0.828535,-0.825726,0.762137,-0.661686,-0.016713,-0.085020,-1.400000,1.400000,1.200437,1.224100,-0.208708,0.130206,0.061459,0.006854,0.139418,-0.101098
-1.570000,-1.570000,-0.042193,-0.019678,-0.183213,0.058081,-0.025989,-0.112411,0.520000,2.354691,2.328325,-1.862199,-1.942878,-0.825647,-0.823229,0.772988,-0.667208,-0.014410,-0.083326,-1.400000,1.400000,1.201162,1.224098,-0.208580,0.130027,0.062109,0.006259,0.140764,-0.102372
-1.570000,-1.570000,-0.044994,-0.023913,-0.179493,0.056414,-0.024383,-0.111522,0.520000,2.329423,2.304244,-1.878011,-1.963636,-0.821439,-0.819815,0.783914,-0.672936,-0.012338,-0.081642,-1.400000,1.400000,1.201151,1.223898,-0.208230,0.129544,0.062777,0.006001,0.142355,-0.103744
-1.570000,-1.570000,-0.047299,-0.027871,-0.176788,0.054835,-0.022594,-0.111522,0.520000,2.303699,2.279775,-1.887438,-1.978713,-0.813078,-0.813132,0.795116,-0.678890,-0.010584,-0.079357,-1.400000,1.400000,1.198500,1.222652,-0.208230,0.129544,0.062777,0.006001,0.142355,-0.103744
-1.570000,-1.570000,-0.049311,-0.031154,-0.174177,0.053407,-0.020740,-0.110057,0.520000,2.277864,2.255023,-1.894891,-1.992477,-0.803859,-0.805389,0.806826,-0.684615,-0.008673,-0.076592,-1.400000,1.400000,1.195171,1.220705,-0.207335,0.128209,0.063548,0.005868,0.143338,-0.104306
-1.570000,-1.570000,-0.050736,-0.033083,-0.171754,0.053407,-0.018754,-0.110057,0.520000,2.251803,2.229696,-1.898399,-2.003619,-0.792927,-0.795524,0.819555,-0.689883,-0.006446,-0.072866,-1.400000,1.400000,1.190485,1.217354,-0.207335,0.128209,0.063548,0.005868,0.143338,-0.104306
-1.570000,-1.570000,-0.052312,-0.034188,-0.169158,0.053743,-0.017072,-0.108845,0.520000,2.225617,2.203772,-1.897884,-2.012250,-0.780951,-0.784042,0.834332,-0.694885,-0.004121,-0.068855,-1.400000,1.400000,1.185079,1.212972,-0.205383,0.126252,0.064267,0.005761,0.143985,-0.103971
-1.570000,-1.570000,-0.053964,-0.034569,-0.166476,0.054454,-0.014978,-0.108430,0.520000,2.199369,2.177549,-1.895358,-2.019626,-0.768454,-0.771752,0.850133,-0.699755,-0.001747,-0.064701,-1.400000,1.400000,1.179312,1.208073,-0.203494,0.124713,0.064587,0.005697,0.144764,-0.102922
-1.570000,-1.570000,-0.055929,-0.034569,-0.163824,0.052686,-0.014978,-0.108430,0.520000,2.173754,2.151614,-1.887202,-2.021866,-0.754539,-0.757284,0.868267,-0.704376,0.000319,-0.061318,-1.400000,1.400000,1.171629,1.202167,-0.201294,0.122914,0.064587,0.005697,0.144764,-0.102922
-1.566103,-1.563583,-0.058511,-0.034206,-0.161112,0.050635,-0.015147,-0.109541,0.520000,2.145274,2.121433,-1.875371,-2.021197,-0.738828,-0.743543,0.889314,-0.709543,0.002371,-0.057955,-1.400000,1.400000,1.161185,1.194974,-0.198925,0.120691,0.063377,0.005656,0.145696,-0.101629
-1.554413,-1.544331,-0.062328,-0.034206,-0.158281,0.048018,-0.015147,-0.112670,0.520000,2.111062,2.082757,-1.856189,-2.014709,-0.719526,-0.731254,0.916189,-0.715802,0.002371,-0.054632,-1.400000,1.400000,1.145219,1.185209,-0.196219,0.117620,0.063377,0.005656,0.145696,-0.099801
-1.514451,-1.502338,-0.064677,-0.032562,-0.154422,0.044997,-0.016701,-0.116970,0.520000,2.060356,2.030760,-1.827496,-1.996956,-0.710323,-0.724796,0.941670,-0.721393,0.002187,-0.051128,-1.400000,1.400000,1.126014,1.177138,-0.194113,0.115741,0.061068,0.004856,0.147000,-0.097957
-1.460354,-1.448976,-0.066293,-0.030521,-0.150049,0.041772,-0.018562,-0.121857,0.520000,2.001405,1.972102,-1.794049,-1.973569,-0.706168,-0.721253,0.966455,-0.727074,0.000899,-0.047533,-1.400000,1.400000,1.105188,1.169740,-0.192087,0.114886,0.059104,0.003663,0.147833,-0.096105
-1.399911,-1.389994,-0.064661,-0.027421,-0.145118,0.040422,-0.018562,-0.126297,0.520000,1.938765,1.910401,-1.752471,-1.938805,-0.702326,-0.716106,0.980699,-0.727074,-0.001143,-0.043622,-1.393382,1.398233,1.086680,1.169740,-0.192087,0.118748,0.057694,0.003663,0.149100,-0.094593
-1.337750,-1.329192,-0.064308,-0.024445,-0.140217,0.038430,-0.019190,-0.130510,0.520000,1.874650,1.847257,-1.701282,-1.896761,-0.697487,-0.710459,0.996165,-0.726066,-0.002907,-0.039122,-1.375262,1.385898,1.065450,1.168564,-0.190746,0.122906,0.056325,0.003045,0.149356,-0.092837
-1.272155,-1.264754,-0.064308,-0.021715,-0.135379,0.035158,-0.019190,-0.134269,0.520000,1.807587,1.781226,-1.630870,-1.840162,-0.690653,-0.703814,1.014070,-0.721779,-0.004116,-0.033444,-1.334141,1.352426,1.038776,1.168564,-0.187381,0.127658,0.056325,0.003045,0.149356,-0.090594
-1.207853,-1.201687,-0.066164,-0.019168,-0.130211,0.029101,-0.019514,-0.137518,0.520000,1.740981,1.716046,-1.551950,-1.778777,-0.681698,-0.695189,1.035724,-0.717566,-0.005722,-0.028634,-1.291407,1.320948,1.006828,1.162913,-0.181597,0.130410,0.055897,0.003568,0.147176,-0.088156
-1.144201,-1.139307,-0.066995,-0.016712,-0.124879,0.021650,-0.019229,-0.140511,0.520000,1.674605,1.651295,-1.468777,-1.715001,-0.671684,-0.685572,1.059252,-0.713391,-0.007528,-0.024258,-1.247867,1.290469,0.972244,1.155937,-0.174603,0.131588,0.056872,0.004822,0.144790,-0.085620
